; G-Code generated by Simplify3D(TM) Version 2.1.2
; Nov 15, 2014 at 6:53:30 PM
; Settings Summary
;   processName,Process1
;   applyToModels,Pendant01
;   printMaterial,PLA
;   printQuality,Fast
;   extruderName,Primary Extruder
;   extruderToolheadNumber,0
;   extruderDiameter,0.4
;   extruderAutoWidth,0
;   extruderWidth,0.4
;   extrusionMultiplier,0.9
;   extruderUseRetract,1
;   extruderRetractionDistance,1
;   extruderExtraRestartDistance,0
;   extruderRetractionZLift,0
;   extruderRetractionSpeed,1800
;   extruderUseCoasting,0
;   extruderCoastingDistance,0.2
;   extruderUseWipe,0
;   extruderWipeDistance,5
;   primaryExtruder,0
;   layerHeight,0.3
;   topSolidLayers,3
;   bottomSolidLayers,3
;   perimeterOutlines,2
;   printPerimetersInsideOut,1
;   startPointOption,1
;   startPointOriginX,0
;   startPointOriginY,0
;   startPointOriginZ,300
;   sequentialIslands,0
;   spiralVaseMode,0
;   firstLayerHeightRatio,0.9
;   firstLayerUnderspeed,0.5
;   useRaft,0
;   raftLayers,3
;   raftOffset,3
;   raftSeparationDistance,0.14
;   raftInfill,85
;   disableRaftBaseLayers,0
;   useSkirt,1
;   skirtLayers,1
;   skirtOutlines,12
;   skirtOffset,4
;   infillExtruder,0
;   externalInfillPattern,Rectilinear
;   infillPercentage,15
;   outlineOverlapPercentage,15
;   minInfillLength,5
;   infillLayerInterval,1
;   randomInfillStartPoint,1
;   infillAngles,45,-45
;   generateSupport,0
;   supportExtruder,0
;   supportInfill,25
;   supportExtraInflation,0
;   supportLayerInterval,1
;   supportHorizontalPartOffset,0.3
;   supportUpperSeparationLayers,1
;   supportLowerSeparationLayers,1
;   supportGridSpacing,4
;   maxOverhangAngle,45
;   supportAngles,0
;   temperatureName,Primary Extruder
;   temperatureNumber,0
;   temperatureSetpointCount,1
;   temperatureSetpointLayers,1
;   temperatureSetpointTemperatures,190
;   temperatureStabilizeAtStartup,1
;   temperatureHeatedBed,0
;   temperatureRelayBetweenLayers,0
;   temperatureRelayBetweenLoops,0
;   fanLayers,1,2
;   fanSpeeds,0,100
;   blipFanToFullPower,1
;   adjustSpeedForCooling,1
;   minSpeedLayerTime,15
;   minCoolingSpeedSlowdown,20
;   increaseFanForCooling,0
;   minFanLayerTime,45
;   maxCoolingFanSpeed,100
;   increaseFanForBridging,0
;   bridgingFanSpeed,100
;   use5D,1
;   relativeEdistances,0
;   allowEaxisZeroing,1
;   includeM10123,0
;   stickySupport,1
;   detectArcs,0
;   arcReplaceG2G3,0
;   arcRadialCompensation,1
;   gcodeXoffset,0
;   gcodeYoffset,0
;   gcodeZoffset,0
;   overrideMachineDefinition,1
;   machineTypeOverride,0
;   strokeXoverride,150
;   strokeYoverride,150
;   strokeZoverride,150
;   originOffsetXoverride,0
;   originOffsetYoverride,0
;   originOffsetZoverride,0
;   homeXdirOverride,-1
;   homeYdirOverride,-1
;   homeZdirOverride,-1
;   flipXoverride,1
;   flipYoverride,-1
;   flipZoverride,1
;   startingGcode,G28 ; home all axes,G29
;   layerChangeGcode,
;   toolChangeGcode,
;   endingGcode,M104 S0 T0 ; turn off extruder,M140 S0 T1 ; turn off bed,G28 X0 ; home X axis,M84 ; disable motors,M107
;   createX3G,0
;   celebration,0
;   celebrationSong,Random Song
;   postProcessing,
;   defaultSpeed,3600
;   outlineUnderspeed,0.5
;   supportUnderspeed,0.8
;   rapidXYspeed,4800
;   rapidZspeed,1000
;   minBridgingArea,50
;   bridgingExtrusionMultiplier,1
;   bridgingSpeedMultiplier,1
;   filamentDiameter,1.75
;   filamentPricePerKg,46
;   useMinPrintHeight,0
;   minPrintHeight,0
;   useMaxPrintHeight,0
;   maxPrintHeight,0
;   overlapRemoval,0
;   overlapRemovalPercentage,0.3
;   useDiaphragm,0
;   diaphragmLayerInterval,20
;   robustSlicing,1
;   mergeAllIntoSolid,0
;   onlyRetractWhenCrossingOutline,1
;   retractBetweenLayers,1
;   useRetractionMinTravel,0
;   retractionMinTravel,3
;   useRetractionOozeRate,0
;   retractionOozeRate,100
;   onlyWipeOutlines,1
G90 ; use absolute coordinates
M82 ; absolute extrusion distances
G21 ; set units to millimeters
M106 S0
M104 S190 T0
M109 S190 T0
G28 ; home all axes
G29
G92 E0
G1 E-1 F1800
; layer 1, Z = 0.27
T0
; tool H0.3 W0.4
G0 X40.506 Y54.96 F4800
G0 Z0.27 F1000
G1 E0 F540
G92 E0
G1 X47.088 Y52.462 E0.3161 F1800
G1 X47.412 Y52.317 E0.332
G1 X47.857 Y52.062 E0.3551
G1 X47.978 Y51.986 E0.3615
G1 X48.538 Y51.605 E0.3919
G1 X50.306 Y50.31 E0.4903
G1 X51.61 Y48.531 E0.5893
G1 X51.99 Y47.971 E0.6197
G1 X52.067 Y47.85 E0.6261
G1 X52.322 Y47.405 E0.6492
G1 X52.357 Y47.337 E0.6526
G1 X52.37 Y47.309 E0.654
G1 X55.148 Y40.398 E0.9885
G1 X62.097 Y41.525 E1.3046
G1 X62.45 Y41.562 E1.3205
G1 X62.963 Y41.563 E1.3435
G1 X63.105 Y41.558 E1.3499
G1 X63.781 Y41.509 E1.3803
G1 X65.96 Y41.271 E1.4788
G1 X67.978 Y40.382 E1.5778
G1 X68.588 Y40.087 E1.6082
G1 X68.714 Y40.021 E1.6146
G1 X69.158 Y39.763 E1.6377
G1 X69.222 Y39.722 E1.6411
G1 X69.247 Y39.704 E1.6424
G1 X75.109 Y35.107 E1.9769
G1 X80.563 Y39.558 E2.293
G1 X80.85 Y39.767 E2.309
G1 X81.293 Y40.024 E2.332
G1 X81.42 Y40.091 E2.3384
G1 X82.03 Y40.386 E2.3688
G1 X84.036 Y41.27 E2.4672
G1 X86.228 Y41.509 E2.5663
G1 X86.903 Y41.559 E2.5967
G1 X87.046 Y41.564 E2.6031
G1 X87.559 Y41.563 E2.6261
G1 X87.636 Y41.559 E2.6296
G1 X87.666 Y41.557 E2.6309
G1 X95.04 Y40.506 E2.9654
G1 X97.538 Y47.088 E3.2815
G1 X97.683 Y47.412 E3.2974
G1 X97.938 Y47.857 E3.3205
G1 X98.014 Y47.978 E3.3269
G1 X98.395 Y48.538 E3.3573
G1 X99.69 Y50.306 E3.4557
G1 X101.469 Y51.61 E3.5547
G1 X102.029 Y51.99 E3.5851
G1 X102.149 Y52.067 E3.5915
G1 X102.595 Y52.322 E3.6146
G1 X102.663 Y52.357 E3.618
G1 X102.691 Y52.37 E3.6194
G1 X109.602 Y55.148 E3.9539
G1 X108.475 Y62.097 E4.27
G1 X108.438 Y62.45 E4.2859
G1 X108.437 Y62.963 E4.3089
G1 X108.442 Y63.105 E4.3153
G1 X108.491 Y63.781 E4.3457
G1 X108.729 Y65.96 E4.4442
G1 X109.618 Y67.978 E4.5432
G1 X109.913 Y68.588 E4.5736
G1 X109.979 Y68.714 E4.58
G1 X110.236 Y69.157 E4.603
G1 X110.445 Y69.444 E4.6189
G1 X114.981 Y75 E4.941
G1 X110.442 Y80.563 E5.2634
G1 X110.233 Y80.85 E5.2793
G1 X109.976 Y81.294 E5.3023
G1 X109.909 Y81.42 E5.3087
G1 X109.614 Y82.03 E5.3392
G1 X108.73 Y84.036 E5.4376
G1 X108.491 Y86.228 E5.5366
G1 X108.441 Y86.903 E5.567
G1 X108.436 Y87.045 E5.5734
G1 X108.437 Y87.558 E5.5964
G1 X108.474 Y87.911 E5.6124
G1 X109.624 Y94.991 E5.9344
G1 X102.912 Y97.538 E6.2568
G1 X102.588 Y97.683 E6.2727
G1 X102.143 Y97.938 E6.2958
G1 X102.022 Y98.014 E6.3021
G1 X101.462 Y98.395 E6.3326
G1 X99.694 Y99.69 E6.431
G1 X98.39 Y101.469 E6.53
G1 X98.01 Y102.029 E6.5604
G1 X97.933 Y102.149 E6.5668
G1 X97.678 Y102.595 E6.5899
G1 X97.643 Y102.663 E6.5933
G1 X97.63 Y102.691 E6.5947
G1 X94.852 Y109.602 E6.9291
G1 X87.903 Y108.475 E7.2452
G1 X87.55 Y108.438 E7.2612
G1 X87.037 Y108.437 E7.2842
G1 X86.895 Y108.442 E7.2906
G1 X86.219 Y108.491 E7.321
G1 X84.04 Y108.729 E7.4195
G1 X82.022 Y109.618 E7.5185
G1 X81.412 Y109.913 E7.5489
G1 X81.286 Y109.979 E7.5553
G1 X80.843 Y110.236 E7.5783
G1 X80.556 Y110.445 E7.5942
G1 X75 Y114.981 E7.9163
G1 X69.437 Y110.442 E8.2387
G1 X69.15 Y110.233 E8.2546
G1 X68.706 Y109.976 E8.2776
G1 X68.58 Y109.909 E8.284
G1 X67.97 Y109.614 E8.3144
G1 X65.964 Y108.73 E8.4129
G1 X63.772 Y108.491 E8.5119
G1 X63.097 Y108.441 E8.5423
G1 X62.955 Y108.436 E8.5487
G1 X62.442 Y108.437 E8.5717
G1 X62.089 Y108.474 E8.5876
G1 X55.009 Y109.624 E8.9097
G1 X52.462 Y102.912 E9.2321
G1 X52.317 Y102.588 E9.248
G1 X52.062 Y102.143 E9.271
G1 X51.986 Y102.022 E9.2774
G1 X51.605 Y101.462 E9.3079
G1 X50.308 Y99.692 E9.4064
G1 X48.909 Y98.66 E9.4844
G1 X47.987 Y98.022 E9.5348
G1 X47.623 Y97.8 E9.5539
G1 X47.291 Y97.623 E9.5708
G1 X40.398 Y94.852 E9.9044
G1 X41.525 Y87.903 E10.2205
G1 X41.562 Y87.55 E10.2364
G1 X41.563 Y87.037 E10.2595
G1 X41.558 Y86.895 E10.2659
G1 X41.509 Y86.219 E10.2963
G1 X41.271 Y84.04 E10.3947
G1 X40.382 Y82.022 E10.4937
G1 X40.087 Y81.412 E10.5242
G1 X40.021 Y81.286 E10.5305
G1 X39.763 Y80.842 E10.5536
G1 X39.722 Y80.778 E10.557
G1 X39.704 Y80.753 E10.5584
G1 X35.107 Y74.891 E10.8929
G1 X39.558 Y69.437 E11.209
G1 X39.767 Y69.15 E11.2249
G1 X40.024 Y68.707 E11.2479
G1 X40.091 Y68.58 E11.2544
G1 X40.386 Y67.97 E11.2848
G1 X41.27 Y65.964 E11.3832
G1 X41.509 Y63.772 E11.4822
G1 X41.559 Y63.097 E11.5126
G1 X41.564 Y62.954 E11.519
G1 X41.563 Y62.441 E11.5421
G1 X41.559 Y62.364 E11.5455
G1 X41.557 Y62.334 E11.5469
G1 X40.506 Y54.96 E11.8814
G0 X40.947 Y55.22 F4800
G92 E0
G1 X47.241 Y52.832 E0.3022 F1800
G1 X47.585 Y52.678 E0.3192
G1 X47.602 Y52.669 E0.32
G1 X48.064 Y52.404 E0.3439
G1 X48.197 Y52.32 E0.351
G1 X48.769 Y51.932 E0.382
G1 X50.593 Y50.596 E0.4836
G1 X51.937 Y48.762 E0.5857
G1 X52.325 Y48.19 E0.6167
G1 X52.409 Y48.057 E0.6238
G1 X52.674 Y47.596 E0.6476
G1 X52.716 Y47.513 E0.6518
G1 X52.737 Y47.469 E0.654
G1 X55.4 Y40.844 E0.9746
G1 X62.044 Y41.922 E1.2768
G1 X62.419 Y41.961 E1.2938
G1 X62.438 Y41.962 E1.2946
G1 X62.97 Y41.963 E1.3185
G1 X63.127 Y41.957 E1.3256
G1 X63.817 Y41.907 E1.3566
G1 X66.065 Y41.662 E1.4582
G1 X68.146 Y40.746 E1.5603
G1 X68.768 Y40.445 E1.5913
G1 X68.908 Y40.371 E1.5984
G1 X69.367 Y40.104 E1.6223
G1 X69.445 Y40.054 E1.6264
G1 X69.485 Y40.026 E1.6286
G1 X75.104 Y35.619 E1.9492
G1 X80.319 Y39.876 E2.2515
G1 X80.624 Y40.097 E2.2684
G1 X80.64 Y40.107 E2.2693
G1 X81.1 Y40.374 E2.2931
G1 X81.24 Y40.448 E2.3002
G1 X81.862 Y40.749 E2.3313
G1 X83.931 Y41.661 E2.4328
G1 X86.191 Y41.908 E2.5349
G1 X86.88 Y41.958 E2.5659
G1 X87.038 Y41.964 E2.573
G1 X87.57 Y41.963 E2.5969
G1 X87.663 Y41.958 E2.601
G1 X87.711 Y41.954 E2.6032
G1 X94.78 Y40.947 E2.9238
G1 X97.168 Y47.241 E3.2261
G1 X97.322 Y47.585 E3.243
G1 X97.331 Y47.602 E3.2439
G1 X97.596 Y48.064 E3.2677
G1 X97.679 Y48.197 E3.2748
G1 X98.068 Y48.769 E3.3059
G1 X99.404 Y50.593 E3.4074
G1 X101.238 Y51.937 E3.5095
G1 X101.81 Y52.325 E3.5405
G1 X101.943 Y52.409 E3.5476
G1 X102.404 Y52.674 E3.5715
G1 X102.487 Y52.716 E3.5756
G1 X102.531 Y52.737 E3.5778
G1 X109.156 Y55.4 E3.8984
G1 X108.078 Y62.044 E4.2007
G1 X108.039 Y62.419 E4.2176
G1 X108.038 Y62.439 E4.2185
G1 X108.037 Y62.97 E4.2423
G1 X108.043 Y63.127 E4.2494
G1 X108.093 Y63.817 E4.2805
G1 X108.338 Y66.065 E4.382
G1 X109.254 Y68.146 E4.4841
G1 X109.555 Y68.768 E4.5151
G1 X109.629 Y68.907 E4.5222
G1 X109.896 Y69.367 E4.5461
G1 X109.906 Y69.383 E4.5469
G1 X110.127 Y69.688 E4.5638
G1 X114.465 Y75 E4.8718
G1 X110.124 Y80.319 E5.18
G1 X109.903 Y80.624 E5.1969
G1 X109.893 Y80.64 E5.1978
G1 X109.626 Y81.1 E5.2217
G1 X109.552 Y81.24 E5.2287
G1 X109.251 Y81.862 E5.2598
G1 X108.339 Y83.931 E5.3613
G1 X108.092 Y86.191 E5.4634
G1 X108.042 Y86.88 E5.4944
G1 X108.036 Y87.038 E5.5015
G1 X108.037 Y87.57 E5.5254
G1 X108.038 Y87.588 E5.5262
G1 X108.077 Y87.964 E5.5432
G1 X109.177 Y94.733 E5.8511
G1 X102.759 Y97.168 E6.1593
G1 X102.415 Y97.322 E6.1763
G1 X102.398 Y97.331 E6.1771
G1 X101.936 Y97.596 E6.201
G1 X101.803 Y97.679 E6.208
G1 X101.231 Y98.068 E6.2391
G1 X99.407 Y99.404 E6.3406
G1 X98.063 Y101.238 E6.4427
G1 X97.675 Y101.81 E6.4737
G1 X97.591 Y101.943 E6.4808
G1 X97.326 Y102.404 E6.5047
G1 X97.284 Y102.487 E6.5089
G1 X97.263 Y102.531 E6.5111
G1 X94.6 Y109.156 E6.8317
G1 X87.956 Y108.078 E7.1339
G1 X87.581 Y108.039 E7.1509
G1 X87.561 Y108.038 E7.1517
G1 X87.03 Y108.037 E7.1756
G1 X86.873 Y108.043 E7.1827
G1 X86.183 Y108.093 E7.2137
G1 X83.935 Y108.338 E7.3152
G1 X81.854 Y109.254 E7.4173
G1 X81.232 Y109.555 E7.4484
G1 X81.092 Y109.629 E7.4554
G1 X80.633 Y109.896 E7.4793
G1 X80.617 Y109.906 E7.4801
G1 X80.312 Y110.127 E7.4971
G1 X75 Y114.465 E7.805
G1 X69.681 Y110.125 E8.1132
G1 X69.376 Y109.903 E8.1302
G1 X69.36 Y109.893 E8.131
G1 X68.9 Y109.625 E8.1549
G1 X68.76 Y109.552 E8.162
G1 X68.138 Y109.251 E8.193
G1 X66.069 Y108.339 E8.2945
G1 X63.808 Y108.092 E8.3967
G1 X63.12 Y108.042 E8.4277
G1 X62.962 Y108.036 E8.4348
G1 X62.43 Y108.037 E8.4587
G1 X62.412 Y108.038 E8.4595
G1 X62.036 Y108.077 E8.4764
G1 X55.267 Y109.177 E8.7843
G1 X52.832 Y102.759 E9.0926
G1 X52.678 Y102.415 E9.1095
G1 X52.669 Y102.398 E9.1103
G1 X52.404 Y101.936 E9.1342
G1 X52.32 Y101.803 E9.1413
G1 X51.932 Y101.231 E9.1724
G1 X50.595 Y99.406 E9.2739
G1 X49.141 Y98.335 E9.355
G1 X48.205 Y97.687 E9.4062
G1 X47.822 Y97.452 E9.4263
G1 X47.46 Y97.26 E9.4447
G1 X40.844 Y94.6 E9.7649
G1 X41.922 Y87.956 E10.0671
G1 X41.961 Y87.581 E10.0841
G1 X41.962 Y87.562 E10.0849
G1 X41.963 Y87.03 E10.1088
G1 X41.957 Y86.873 E10.1159
G1 X41.907 Y86.183 E10.1469
G1 X41.662 Y83.935 E10.2485
G1 X40.746 Y81.854 E10.3506
G1 X40.445 Y81.232 E10.3816
G1 X40.371 Y81.092 E10.3887
G1 X40.104 Y80.633 E10.4125
G1 X40.054 Y80.555 E10.4167
G1 X40.026 Y80.515 E10.4189
G1 X35.619 Y74.896 E10.7395
G1 X39.876 Y69.681 E11.0418
G1 X40.097 Y69.376 E11.0587
G1 X40.107 Y69.36 E11.0596
G1 X40.374 Y68.9 E11.0834
G1 X40.448 Y68.76 E11.0905
G1 X40.749 Y68.138 E11.1216
G1 X41.661 Y66.069 E11.2231
G1 X41.908 Y63.809 E11.3252
G1 X41.958 Y63.12 E11.3562
G1 X41.964 Y62.962 E11.3633
G1 X41.963 Y62.43 E11.3872
G1 X41.958 Y62.337 E11.3913
G1 X41.954 Y62.289 E11.3935
G1 X40.947 Y55.22 E11.7141
G0 X41.389 Y55.48 F4800
G92 E0
G1 X47.393 Y53.202 E0.2884 F1800
G1 X47.758 Y53.039 E0.3063
G1 X47.793 Y53.021 E0.3081
G1 X48.27 Y52.747 E0.3328
G1 X48.416 Y52.655 E0.3405
G1 X48.999 Y52.259 E0.3722
G1 X50.879 Y50.882 E0.4768
G1 X52.264 Y48.993 E0.582
G1 X52.66 Y48.41 E0.6136
G1 X52.752 Y48.263 E0.6214
G1 X53.026 Y47.786 E0.6461
G1 X53.076 Y47.689 E0.651
G1 X53.104 Y47.629 E0.654
G1 X55.651 Y41.29 E0.9607
G1 X61.991 Y42.319 E1.2491
G1 X62.389 Y42.36 E1.2671
G1 X62.428 Y42.362 E1.2688
G1 X62.978 Y42.363 E1.2935
G1 X63.15 Y42.357 E1.3013
G1 X63.853 Y42.305 E1.3329
G1 X66.169 Y42.053 E1.4375
G1 X68.314 Y41.109 E1.5427
G1 X68.948 Y40.802 E1.5744
G1 X69.101 Y40.721 E1.5822
G1 X69.577 Y40.445 E1.6068
G1 X69.668 Y40.386 E1.6118
G1 X69.723 Y40.348 E1.6147
G1 X75.099 Y36.132 E1.9215
G1 X80.075 Y40.193 E2.2099
G1 X80.398 Y40.427 E2.2278
G1 X80.431 Y40.448 E2.2296
G1 X80.906 Y40.725 E2.2543
G1 X81.059 Y40.805 E2.262
G1 X81.694 Y41.112 E2.2937
G1 X83.826 Y42.051 E2.3983
G1 X86.155 Y42.306 E2.5035
G1 X86.858 Y42.358 E2.5351
G1 X87.031 Y42.364 E2.5429
G1 X87.581 Y42.363 E2.5676
G1 X87.69 Y42.357 E2.5725
G1 X87.756 Y42.352 E2.5755
G1 X94.52 Y41.389 E2.8822
G1 X96.798 Y47.393 E3.1706
G1 X96.962 Y47.758 E3.1886
G1 X96.979 Y47.793 E3.1903
G1 X97.253 Y48.27 E3.215
G1 X97.345 Y48.416 E3.2228
G1 X97.741 Y48.999 E3.2544
G1 X99.118 Y50.879 E3.359
G1 X101.007 Y52.264 E3.4642
G1 X101.591 Y52.66 E3.4959
G1 X101.737 Y52.752 E3.5036
G1 X102.214 Y53.026 E3.5283
G1 X102.311 Y53.076 E3.5333
G1 X102.371 Y53.104 E3.5362
G1 X108.71 Y55.651 E3.843
G1 X107.681 Y61.991 E4.1314
G1 X107.64 Y62.389 E4.1493
G1 X107.638 Y62.428 E4.1511
G1 X107.637 Y62.977 E4.1757
G1 X107.643 Y63.15 E4.1835
G1 X107.695 Y63.853 E4.2152
G1 X107.947 Y66.169 E4.3198
G1 X108.891 Y68.314 E4.425
G1 X109.198 Y68.948 E4.4566
G1 X109.279 Y69.101 E4.4644
G1 X109.555 Y69.577 E4.4891
G1 X109.576 Y69.609 E4.4908
G1 X109.81 Y69.933 E4.5088
G1 X113.948 Y75.001 E4.8025
G1 X109.807 Y80.075 E5.0966
G1 X109.573 Y80.398 E5.1146
G1 X109.552 Y80.431 E5.1163
G1 X109.275 Y80.906 E5.141
G1 X109.195 Y81.059 E5.1488
G1 X108.888 Y81.694 E5.1804
G1 X107.949 Y83.826 E5.285
G1 X107.694 Y86.155 E5.3902
G1 X107.642 Y86.858 E5.4219
G1 X107.636 Y87.031 E5.4296
G1 X107.637 Y87.581 E5.4543
G1 X107.639 Y87.619 E5.456
G1 X107.68 Y88.017 E5.474
G1 X108.73 Y94.475 E5.7678
G1 X102.607 Y96.798 E6.0618
G1 X102.242 Y96.962 E6.0798
G1 X102.207 Y96.979 E6.0815
G1 X101.73 Y97.253 E6.1062
G1 X101.584 Y97.345 E6.114
G1 X101.001 Y97.741 E6.1456
G1 X99.121 Y99.118 E6.2502
G1 X97.736 Y101.007 E6.3554
G1 X97.34 Y101.591 E6.3871
G1 X97.248 Y101.737 E6.3948
G1 X96.974 Y102.214 E6.4195
G1 X96.924 Y102.311 E6.4245
G1 X96.896 Y102.371 E6.4274
G1 X94.349 Y108.71 E6.7342
G1 X88.009 Y107.681 E7.0226
G1 X87.611 Y107.64 E7.0405
G1 X87.572 Y107.638 E7.0423
G1 X87.023 Y107.637 E7.067
G1 X86.85 Y107.643 E7.0747
G1 X86.147 Y107.695 E7.1064
G1 X83.831 Y107.947 E7.211
G1 X81.686 Y108.891 E7.3162
G1 X81.052 Y109.198 E7.3478
G1 X80.899 Y109.279 E7.3556
G1 X80.423 Y109.555 E7.3803
G1 X80.391 Y109.576 E7.382
G1 X80.067 Y109.81 E7.4
G1 X75 Y113.948 E7.6937
G1 X69.925 Y109.807 E7.9878
G1 X69.602 Y109.573 E8.0058
G1 X69.569 Y109.552 E8.0075
G1 X69.094 Y109.275 E8.0322
G1 X68.941 Y109.195 E8.04
G1 X68.306 Y108.888 E8.0716
G1 X66.174 Y107.949 E8.1762
