; G-Code generated by Simplify3D(TM) Version 2.2.0
; Dec 15, 2014 at 10:15:37 PM
; Settings Summary
;   processName,Printrbot Metial Simple
;   applyToModels,Pendant03
;   profileLabel,_PrintrBotMetal.fff
;   printMaterial,PLA
;   printQuality,Fast
;   extruderName,Primary Extruder
;   extruderToolheadNumber,0
;   extruderDiameter,0.4
;   extruderAutoWidth,0
;   extruderWidth,0.4
;   extrusionMultiplier,0.9
;   extruderUseRetract,1
;   extruderRetractionDistance,1
;   extruderExtraRestartDistance,0
;   extruderRetractionZLift,0
;   extruderRetractionSpeed,1800
;   extruderUseCoasting,0
;   extruderCoastingDistance,0.2
;   extruderUseWipe,0
;   extruderWipeDistance,5
;   primaryExtruder,0
;   layerHeight,0.3
;   topSolidLayers,2
;   bottomSolidLayers,2
;   perimeterOutlines,2
;   printPerimetersInsideOut,1
;   startPointOption,2
;   startPointOriginX,0
;   startPointOriginY,0
;   startPointOriginZ,300
;   sequentialIslands,0
;   spiralVaseMode,0
;   firstLayerHeightPercentage,90
;   firstLayerWidthPercentage,100
;   firstLayerUnderspeed,0.5
;   useRaft,0
;   raftExtruder,0
;   raftLayers,3
;   raftOffset,3
;   raftSeparationDistance,0.14
;   raftInfill,85
;   disableRaftBaseLayers,0
;   useSkirt,0
;   skirtExtruder,0
;   skirtLayers,1
;   skirtOutlines,2
;   skirtOffset,4
;   infillExtruder,0
;   externalInfillPattern,Rectilinear
;   infillPercentage,25
;   outlineOverlapPercentage,15
;   infillExtrusionWidthPercentage,100
;   minInfillLength,5
;   infillLayerInterval,1
;   randomInfillStartPoint,0
;   infillAngles,45,-45
;   generateSupport,0
;   supportExtruder,0
;   supportInfill,25
;   supportExtraInflation,0
;   denseSupportLayers,0
;   denseSupportInfill,70
;   supportLayerInterval,1
;   supportHorizontalPartOffset,0.3
;   supportUpperSeparationLayers,1
;   supportLowerSeparationLayers,1
;   supportGridSpacing,4
;   maxOverhangAngle,45
;   supportAngles,0
;   temperatureName,Primary Extruder,Heated Bed
;   temperatureNumber,0,1
;   temperatureSetpointCount,1,1
;   temperatureSetpointLayers,1,1
;   temperatureSetpointTemperatures,200,35
;   temperatureStabilizeAtStartup,1,1
;   temperatureHeatedBed,0,1
;   temperatureRelayBetweenLayers,0,0
;   temperatureRelayBetweenLoops,0,0
;   fanLayers,1,2
;   fanSpeeds,0,100
;   blipFanToFullPower,1
;   adjustSpeedForCooling,1
;   minSpeedLayerTime,15
;   minCoolingSpeedSlowdown,20
;   increaseFanForCooling,0
;   minFanLayerTime,45
;   maxCoolingFanSpeed,100
;   increaseFanForBridging,0
;   bridgingFanSpeed,100
;   use5D,1
;   relativeEdistances,0
;   allowEaxisZeroing,1
;   independentExtruderAxes,0
;   includeM10123,0
;   stickySupport,1
;   detectArcs,0
;   arcReplaceG2G3,0
;   arcRadialCompensation,1
;   gcodeXoffset,0
;   gcodeYoffset,0
;   gcodeZoffset,0
;   overrideMachineDefinition,1
;   machineTypeOverride,0
;   strokeXoverride,150
;   strokeYoverride,150
;   strokeZoverride,150
;   originOffsetXoverride,0
;   originOffsetYoverride,0
;   originOffsetZoverride,0
;   homeXdirOverride,-1
;   homeYdirOverride,-1
;   homeZdirOverride,-1
;   flipXoverride,1
;   flipYoverride,-1
;   flipZoverride,1
;   startingGcode,G28 ; home all axes,G29 ;,G1 E25.0 ; extrude 25mm,G92 E0.0 ; reset the Extruder distance to zero (no motion as a result of this command).
;   layerChangeGcode,
;   toolChangeGcode,
;   endingGcode,M104 S0 T0 ; turn off extruder,M140 S0 T1 ; turn off bed,G28 X0 ; home X axis,M84 ; disable motors,M107 ; Turn off fan
;   createX3G,0
;   celebration,0
;   celebrationSong,Random Song
;   createMB5G,0
;   postProcessing,
;   defaultSpeed,3600
;   outlineUnderspeed,0.5
;   solidInfillUnderspeed,0.8
;   supportUnderspeed,0.8
;   rapidXYspeed,4800
;   rapidZspeed,1000
;   minBridgingArea,50
;   bridgingExtrusionMultiplier,1
;   bridgingSpeedMultiplier,1
;   filamentDiameter,1.75
;   filamentPricePerKg,46
;   useMinPrintHeight,0
;   minPrintHeight,0
;   useMaxPrintHeight,0
;   maxPrintHeight,0
;   useDiaphragm,0
;   diaphragmLayerInterval,20
;   robustSlicing,1
;   mergeAllIntoSolid,0
;   onlyRetractWhenCrossingOutline,1
;   retractBetweenLayers,1
;   useRetractionMinTravel,0
;   retractionMinTravel,3
;   useRetractionOozeRate,0
;   retractionOozeRate,100
;   onlyWipeOutlines,1
;   toolChangeRetractionDistance,12
;   toolChangeExtraRestartDistance,-0.5
;   toolChangeRetractionSpeed,600
;   allowThinWallGapFill,1
;   thinWallAllowedOverlapPercentage,10
G90
M82
M106 S0
M140 S35
M190 S35
M104 S200 T0
M109 S200 T0
G28 ; home all axes
G29 ;
G1 E25.0 ; extrude 25mm
G92 E0.0 ; reset the Extruder distance to zero (no motion as a result of this command).
G92 E0
G1 E-1 F1800
; layer 1, Z = 0.27
T0
; tool H0.3 W0.4
G1 X66.797 Y66.797 F4800
G1 Z0.27 F1000
G1 E0 F540
G92 E0
G1 X66.379 Y67.238 E0.0273 F1350
G1 X65.985 Y67.7 E0.0545
G1 X65.615 Y68.182 E0.0818
G1 X65.273 Y68.68 E0.109
G1 X65.055 Y69.028 E0.1274
G1 X64.758 Y69.554 E0.1545
G1 X64.488 Y70.095 E0.1817
G1 X64.321 Y70.47 E0.2001
G1 X64.099 Y71.032 E0.2272
G1 X63.907 Y71.608 E0.2545
G1 X63.744 Y72.194 E0.2818
G1 X63.614 Y72.784 E0.3089
G1 X63.542 Y73.188 E0.3274
G1 X63.463 Y73.787 E0.3545
G1 X63.416 Y74.39 E0.3817
G1 X63.402 Y74.8 E0.4001
G1 X63.408 Y75.422 E0.428
G1 X63.446 Y76.028 E0.4553
G1 X63.515 Y76.631 E0.4825
G1 X63.616 Y77.23 E0.5098
G1 X63.749 Y77.823 E0.5371
G1 X63.912 Y78.408 E0.5643
G1 X64.105 Y78.984 E0.5916
G1 X64.328 Y79.546 E0.6188
G1 X64.494 Y79.918 E0.637
G1 X64.673 Y80.284 E0.6554
G1 X64.963 Y80.815 E0.6825
G1 X65.281 Y81.332 E0.7098
G1 X65.624 Y81.83 E0.7369
G1 X65.871 Y82.157 E0.7553
G1 X66.256 Y82.623 E0.7825
G1 X66.667 Y83.07 E0.8098
G1 X67.097 Y83.492 E0.8368
G1 X67.24 Y83.623 E0.8455
G1 X67.559 Y83.899 E0.8644
G1 X68.032 Y84.274 E0.8916
G1 X68.528 Y84.626 E0.9188
G1 X69.04 Y84.952 E0.9461
G1 X69.569 Y85.25 E0.9734
G1 X70.111 Y85.519 E1.0005
G1 X70.486 Y85.686 E1.0189
G1 X71.049 Y85.906 E1.0461
G1 X71.625 Y86.098 E1.0734
G1 X72.21 Y86.26 E1.1006
G1 X72.801 Y86.39 E1.1278
G1 X73.205 Y86.46 E1.1462
G1 X73.804 Y86.538 E1.1733
G1 X74.41 Y86.585 E1.2006
G1 X75.017 Y86.6 E1.2279
G1 X75.624 Y86.583 E1.2552
G1 X76.23 Y86.535 E1.2824
G1 X76.829 Y86.455 E1.3096
G1 X77.233 Y86.383 E1.328
G1 X77.823 Y86.251 E1.3551
G1 X78.408 Y86.088 E1.3824
G1 X78.984 Y85.895 E1.4097
G1 X79.546 Y85.672 E1.4368
G1 X79.92 Y85.505 E1.4553
G1 X80.461 Y85.234 E1.4824
G1 X80.989 Y84.934 E1.5097
G1 X81.501 Y84.607 E1.5369
G1 X81.995 Y84.254 E1.5642
G1 X82.469 Y83.875 E1.5915
G1 X82.924 Y83.472 E1.6187
G1 X83.354 Y83.048 E1.6459
G1 X83.632 Y82.749 E1.6642
G1 X83.899 Y82.441 E1.6825
G1 X84.274 Y81.968 E1.7096
G1 X84.626 Y81.472 E1.7369
G1 X84.952 Y80.96 E1.7642
G1 X85.25 Y80.431 E1.7914
G1 X85.519 Y79.889 E1.8186
G1 X85.686 Y79.514 E1.837
G1 X85.906 Y78.951 E1.8642
G1 X86.098 Y78.375 E1.8914
G1 X86.26 Y77.79 E1.9187
G1 X86.39 Y77.199 E1.9458
G1 X86.46 Y76.795 E1.9643
G1 X86.538 Y76.196 E1.9914
G1 X86.585 Y75.59 E2.0187
G1 X86.6 Y75 E2.0452
G1 X86.584 Y74.393 E2.0725
G1 X86.537 Y73.787 E2.0997
G1 X86.458 Y73.188 E2.1269
G1 X86.386 Y72.784 E2.1453
G1 X86.256 Y72.194 E2.1724
G1 X86.094 Y71.611 E2.1996
G1 X85.967 Y71.221 E2.218
G1 X85.755 Y70.654 E2.2452
G1 X85.513 Y70.098 E2.2724
G1 X85.242 Y69.554 E2.2997
G1 X84.943 Y69.025 E2.327
G1 X84.617 Y68.513 E2.3542
G1 X84.264 Y68.019 E2.3815
G1 X83.888 Y67.546 E2.4087
G1 X83.619 Y67.236 E2.4271
G1 X83.202 Y66.797 E2.4542
G1 X82.764 Y66.381 E2.4814
G1 X82.454 Y66.112 E2.4998
G1 X81.981 Y65.736 E2.5269
G1 X81.487 Y65.383 E2.5542
G1 X80.975 Y65.057 E2.5815
G1 X80.446 Y64.758 E2.6088
G1 X79.902 Y64.487 E2.636
G1 X79.346 Y64.245 E2.6633
G1 X78.779 Y64.033 E2.6905
G1 X78.389 Y63.906 E2.7089
G1 X77.806 Y63.744 E2.736
G1 X77.213 Y63.613 E2.7633
G1 X76.614 Y63.513 E2.7906
G1 X76.011 Y63.444 E2.8178
G1 X75.408 Y63.407 E2.845
G1 X74.997 Y63.4 E2.8634
G1 X74.393 Y63.416 E2.8905
G1 X73.787 Y63.463 E2.9178
G1 X73.188 Y63.542 E2.945
G1 X72.784 Y63.614 E2.9634
G1 X72.194 Y63.744 E2.9905
G1 X71.611 Y63.906 E3.0177
G1 X71.221 Y64.033 E3.0361
G1 X70.654 Y64.245 E3.0633
G1 X70.098 Y64.487 E3.0905
G1 X69.554 Y64.758 E3.1178
G1 X69.025 Y65.057 E3.1451
G1 X68.513 Y65.383 E3.1723
G1 X68.019 Y65.736 E3.1996
G1 X67.546 Y66.112 E3.2267
G1 X67.236 Y66.381 E3.2452
G1 X66.797 Y66.797 E3.2723
G1 X67.08 Y67.08 F4800
G92 E0
G1 X66.677 Y67.506 E0.0263 F900
G1 X66.296 Y67.952 E0.0527
G1 X65.939 Y68.417 E0.079
G1 X65.607 Y68.899 E0.1053
G1 X65.399 Y69.232 E0.1229
G1 X65.111 Y69.742 E0.1492
G1 X64.85 Y70.266 E0.1755
G1 X64.69 Y70.625 E0.1931
G1 X64.475 Y71.169 E0.2194
G1 X64.289 Y71.725 E0.2457
G1 X64.133 Y72.29 E0.2721
G1 X64.006 Y72.862 E0.2984
G1 X63.938 Y73.249 E0.316
G1 X63.861 Y73.829 E0.3423
G1 X63.815 Y74.413 E0.3686
G1 X63.802 Y74.805 E0.3862
G1 X63.807 Y75.407 E0.4132
G1 X63.844 Y75.993 E0.4396
G1 X63.911 Y76.575 E0.4659
G1 X64.009 Y77.153 E0.4922
G1 X64.137 Y77.725 E0.5185
G1 X64.294 Y78.29 E0.5449
G1 X64.481 Y78.846 E0.5712
G1 X64.696 Y79.391 E0.5975
G1 X64.856 Y79.748 E0.6151
G1 X65.029 Y80.1 E0.6327
G1 X65.309 Y80.614 E0.659
G1 X65.616 Y81.114 E0.6853
G1 X65.948 Y81.596 E0.7116
G1 X66.185 Y81.909 E0.7292
G1 X66.558 Y82.36 E0.7555
G1 X66.955 Y82.792 E0.7818
G1 X67.372 Y83.201 E0.8081
G1 X67.506 Y83.324 E0.8162
G1 X67.814 Y83.591 E0.8345
G1 X68.273 Y83.955 E0.8608
G1 X68.751 Y84.294 E0.8871
G1 X69.246 Y84.609 E0.9135
G1 X69.757 Y84.897 E0.9398
G1 X70.281 Y85.157 E0.9661
G1 X70.64 Y85.316 E0.9837
G1 X71.185 Y85.53 E1.01
G1 X71.741 Y85.715 E1.0363
G1 X72.306 Y85.871 E1.0627
G1 X72.878 Y85.997 E1.089
G1 X73.265 Y86.065 E1.1066
G1 X73.846 Y86.14 E1.1329
G1 X74.43 Y86.185 E1.1592
G1 X75.016 Y86.2 E1.1855
G1 X75.603 Y86.184 E1.2119
G1 X76.187 Y86.137 E1.2382
G1 X76.767 Y86.06 E1.2645
G1 X77.154 Y85.991 E1.2821
G1 X77.725 Y85.863 E1.3084
G1 X78.29 Y85.706 E1.3347
G1 X78.846 Y85.519 E1.3611
G1 X79.391 Y85.303 E1.3873
G1 X79.749 Y85.143 E1.405
G1 X80.273 Y84.881 E1.4313
G1 X80.783 Y84.592 E1.4576
G1 X81.277 Y84.276 E1.4839
G1 X81.753 Y83.935 E1.5102
G1 X82.212 Y83.569 E1.5366
G1 X82.65 Y83.18 E1.5629
G1 X83.067 Y82.769 E1.5892
G1 X83.334 Y82.482 E1.6068
G1 X83.591 Y82.186 E1.6244
G1 X83.955 Y81.727 E1.6507
G1 X84.294 Y81.249 E1.677
G1 X84.609 Y80.754 E1.7033
G1 X84.897 Y80.243 E1.7297
G1 X85.157 Y79.719 E1.7559
G1 X85.316 Y79.36 E1.7736
G1 X85.53 Y78.815 E1.7999
G1 X85.715 Y78.259 E1.8262
G1 X85.871 Y77.693 E1.8525
G1 X85.997 Y77.122 E1.8788
G1 X86.065 Y76.735 E1.8964
G1 X86.14 Y76.154 E1.9227
G1 X86.185 Y75.57 E1.9491
G1 X86.2 Y75 E1.9746
G1 X86.185 Y74.414 E2.001
G1 X86.139 Y73.829 E2.0273
G1 X86.062 Y73.249 E2.0536
G1 X85.994 Y72.862 E2.0712
G1 X85.867 Y72.29 E2.0975
G1 X85.711 Y71.726 E2.1238
G1 X85.59 Y71.353 E2.1414
G1 X85.385 Y70.804 E2.1677
G1 X85.151 Y70.267 E2.1941
G1 X84.889 Y69.742 E2.2204
G1 X84.6 Y69.232 E2.2467
G1 X84.285 Y68.737 E2.273
G1 X83.945 Y68.26 E2.2994
G1 X83.58 Y67.801 E2.3257
G1 X83.323 Y67.505 E2.3433
G1 X82.92 Y67.08 E2.3696
G1 X82.495 Y66.677 E2.3959
G1 X82.199 Y66.42 E2.4135
G1 X81.74 Y66.055 E2.4398
G1 X81.263 Y65.715 E2.4661
G1 X80.768 Y65.4 E2.4924
G1 X80.258 Y65.111 E2.5188
G1 X79.733 Y64.849 E2.5451
G1 X79.196 Y64.615 E2.5714
G1 X78.647 Y64.41 E2.5977
G1 X78.274 Y64.289 E2.6154
G1 X77.71 Y64.133 E2.6416
G1 X77.137 Y64.006 E2.668
G1 X76.559 Y63.909 E2.6943
G1 X75.976 Y63.843 E2.7206
G1 X75.392 Y63.807 E2.7469
G1 X74.999 Y63.8 E2.7645
G1 X74.414 Y63.815 E2.7908
G1 X73.829 Y63.861 E2.8172
G1 X73.249 Y63.938 E2.8435
G1 X72.862 Y64.006 E2.8611
G1 X72.29 Y64.133 E2.8874
G1 X71.726 Y64.289 E2.9137
G1 X71.353 Y64.41 E2.9313
G1 X70.804 Y64.615 E2.9576
G1 X70.267 Y64.849 E2.9839
G1 X69.742 Y65.111 E3.0102
G1 X69.232 Y65.4 E3.0366
G1 X68.737 Y65.715 E3.0629
G1 X68.26 Y66.055 E3.0892
G1 X67.801 Y66.42 E3.1155
G1 X67.505 Y66.677 E3.1332
G1 X67.08 Y67.08 E3.1594
G1 X63.05 Y63.05 F4800
G92 E0
G1 X63.696 Y62.437 E0.04 F1350
G1 X64.138 Y62.053 E0.0663
G1 X64.832 Y61.501 E0.1061
G1 X65.553 Y60.987 E0.1458
G1 X66.298 Y60.513 E0.1855
G1 X67.068 Y60.077 E0.2252
G1 X67.86 Y59.683 E0.265
G1 X68.671 Y59.33 E0.3047
G1 X69.5 Y59.02 E0.3444
G1 X70.344 Y58.754 E0.3841
G1 X71.201 Y58.533 E0.4239
G1 X72.067 Y58.357 E0.4636
G1 X72.943 Y58.226 E0.5033
G1 X73.826 Y58.141 E0.5432
G1 X74.41 Y58.111 E0.5694
G1 X75.297 Y58.103 E0.6093
G1 X76.181 Y58.142 E0.649
G1 X77.062 Y58.226 E0.6887
G1 X77.937 Y58.357 E0.7285
G1 X78.806 Y58.534 E0.7683
G1 X79.374 Y58.676 E0.7945
G1 X80.224 Y58.928 E0.8344
G1 X81.058 Y59.223 E0.8741
G1 X81.878 Y59.563 E0.914
G1 X82.411 Y59.812 E0.9403
G1 X82.933 Y60.078 E0.9667
G1 X83.704 Y60.514 E1.0064
G1 X84.453 Y60.991 E1.0463
G1 X85.173 Y61.505 E1.0861
G1 X85.866 Y62.056 E1.1258
G1 X86.529 Y62.644 E1.1656
G1 X86.95 Y63.05 E1.1918
G1 X87.562 Y63.695 E1.2318
G1 X87.946 Y64.137 E1.258
G1 X88.498 Y64.831 E1.2979
G1 X89.012 Y65.552 E1.3376
G1 X89.487 Y66.298 E1.3773
G1 X89.923 Y67.068 E1.4171
G1 X90.317 Y67.86 E1.4568
G1 X90.669 Y68.67 E1.4964
G1 X90.98 Y69.501 E1.5363
G1 X91.246 Y70.345 E1.576
G1 X91.467 Y71.202 E1.6158
G1 X91.644 Y72.069 E1.6555
G1 X91.774 Y72.944 E1.6952
G1 X91.859 Y73.827 E1.735
G1 X91.89 Y74.411 E1.7613
G1 X91.897 Y75.295 E1.801
G1 X91.859 Y76.179 E1.8407
G1 X91.774 Y77.06 E1.8804
G1 X91.643 Y77.937 E1.9203
G1 X91.531 Y78.511 E1.9465
G1 X91.324 Y79.374 E1.9864
G1 X91.073 Y80.222 E2.0261
G1 X90.776 Y81.059 E2.066
G1 X90.438 Y81.876 E2.1057
G1 X90.191 Y82.406 E2.1319
G1 X89.781 Y83.193 E2.1718
G1 X89.33 Y83.958 E2.2116
G1 X89.012 Y84.448 E2.2379
G1 X88.497 Y85.171 E2.2777
G1 X87.946 Y85.863 E2.3175
G1 X87.358 Y86.528 E2.3573
G1 X86.952 Y86.948 E2.3836
G1 X86.306 Y87.561 E2.4235
G1 X85.865 Y87.944 E2.4498
G1 X85.171 Y88.497 E2.4896
G1 X84.45 Y89.011 E2.5293
G1 X83.704 Y89.486 E2.5691
G1 X82.934 Y89.922 E2.6088
G1 X82.142 Y90.316 E2.6485
G1 X81.33 Y90.669 E2.6883
G1 X80.502 Y90.979 E2.728
G1 X79.658 Y91.245 E2.7677
G1 X78.802 Y91.467 E2.8074
G1 X77.935 Y91.643 E2.8472
G1 X77.06 Y91.774 E2.8869
G1 X76.176 Y91.859 E2.9267
G1 X75.592 Y91.889 E2.953
G1 X74.705 Y91.897 E2.9928
G1 X73.821 Y91.859 E3.0326
G1 X72.94 Y91.774 E3.0723
G1 X72.063 Y91.643 E3.1121
G1 X71.489 Y91.531 E3.1384
G1 X70.626 Y91.324 E3.1782
G1 X69.778 Y91.073 E3.2179
G1 X68.941 Y90.776 E3.2578
G1 X68.124 Y90.438 E3.2975
G1 X67.594 Y90.191 E3.3238
G1 X66.807 Y89.781 E3.3636
G1 X66.042 Y89.33 E3.4035
G1 X65.552 Y89.012 E3.4297
G1 X64.829 Y88.497 E3.4696
G1 X64.137 Y87.946 E3.5093
G1 X63.472 Y87.358 E3.5491
G1 X63.052 Y86.952 E3.5754
G1 X62.439 Y86.306 E3.6153
G1 X62.056 Y85.865 E3.6416
G1 X61.503 Y85.171 E3.6814
G1 X60.989 Y84.45 E3.7212
G1 X60.514 Y83.704 E3.7609
G1 X60.078 Y82.934 E3.8006
G1 X59.684 Y82.142 E3.8403
G1 X59.331 Y81.331 E3.8801
G1 X59.019 Y80.497 E3.92
G1 X58.929 Y80.227 E3.9328
G1 X58.755 Y79.661 E3.9594
G1 X58.533 Y78.802 E3.9993
G1 X58.357 Y77.935 E4.039
G1 X58.226 Y77.06 E4.0787
G1 X58.141 Y76.179 E4.1184
G1 X58.103 Y75.292 E4.1583
G1 X58.103 Y74.705 E4.1846
G1 X58.142 Y73.819 E4.2245
G1 X58.226 Y72.938 E4.2642
G1 X58.357 Y72.063 E4.3039
G1 X58.534 Y71.194 E4.3438
G1 X58.676 Y70.626 E4.37
G1 X58.928 Y69.776 E4.4099
G1 X59.223 Y68.942 E4.4496
G1 X59.563 Y68.122 E4.4895
G1 X59.811 Y67.59 E4.5158
G1 X60.078 Y67.066 E4.5422
G1 X60.515 Y66.294 E4.582
G1 X60.991 Y65.548 E4.6218
G1 X61.505 Y64.828 E4.6615
G1 X62.055 Y64.135 E4.7012
G1 X62.644 Y63.471 E4.7411
G1 X63.05 Y63.05 E4.7673
G1 X62.768 Y62.766 F4800
G92 E0
G1 X63.428 Y62.141 E0.0408 F900
G1 X63.882 Y61.746 E0.0678
G1 X64.592 Y61.181 E0.1086
G1 X65.329 Y60.656 E0.1492
G1 X66.092 Y60.17 E0.1898
G1 X66.88 Y59.724 E0.2305
G1 X67.691 Y59.32 E0.2712
G1 X68.521 Y58.959 E0.3118
G1 X69.37 Y58.642 E0.3525
G1 X70.234 Y58.37 E0.3932
G1 X71.111 Y58.143 E0.4338
G1 X71.998 Y57.963 E0.4745
G1 X72.894 Y57.829 E0.5152
G1 X73.796 Y57.742 E0.5559
G1 X74.398 Y57.711 E0.5829
G1 X75.304 Y57.703 E0.6236
G1 X76.209 Y57.742 E0.6643
G1 X77.111 Y57.829 E0.705
G1 X78.006 Y57.963 E0.7456
G1 X78.895 Y58.144 E0.7863
G1 X79.479 Y58.29 E0.8134
G1 X80.348 Y58.547 E0.8541
G1 X81.202 Y58.85 E0.8947
G1 X82.039 Y59.197 E0.9354
G1 X82.586 Y59.452 E0.9625
G1 X83.123 Y59.726 E0.9896
G1 X83.91 Y60.171 E1.0302
G1 X84.677 Y60.66 E1.071
G1 X85.414 Y61.186 E1.1117
G1 X86.123 Y61.75 E1.1524
G1 X86.801 Y62.35 E1.193
G1 X87.234 Y62.768 E1.2201
G1 X87.858 Y63.426 E1.2608
