; G-Code generated by Simplify3D(TM) Version 2.1.2
; Nov 29, 2014 at 12:56:43 AM
; Settings Summary
;   processName,Process1
;   applyToModels,Pendant02
;   printMaterial,PLA
;   printQuality,Fast
;   extruderName,Primary Extruder
;   extruderToolheadNumber,0
;   extruderDiameter,0.4
;   extruderAutoWidth,0
;   extruderWidth,0.4
;   extrusionMultiplier,0.9
;   extruderUseRetract,1
;   extruderRetractionDistance,1
;   extruderExtraRestartDistance,0
;   extruderRetractionZLift,0
;   extruderRetractionSpeed,1800
;   extruderUseCoasting,0
;   extruderCoastingDistance,0.2
;   extruderUseWipe,0
;   extruderWipeDistance,5
;   primaryExtruder,0
;   layerHeight,0.3
;   topSolidLayers,2
;   bottomSolidLayers,2
;   perimeterOutlines,1
;   printPerimetersInsideOut,0
;   startPointOption,2
;   startPointOriginX,0
;   startPointOriginY,0
;   startPointOriginZ,300
;   sequentialIslands,0
;   spiralVaseMode,0
;   firstLayerHeightRatio,0.9
;   firstLayerUnderspeed,0.5
;   useRaft,0
;   raftLayers,3
;   raftOffset,3
;   raftSeparationDistance,0.14
;   raftInfill,85
;   disableRaftBaseLayers,0
;   useSkirt,0
;   skirtLayers,1
;   skirtOutlines,3
;   skirtOffset,6
;   infillExtruder,0
;   externalInfillPattern,Rectilinear
;   infillPercentage,15
;   outlineOverlapPercentage,15
;   minInfillLength,5
;   infillLayerInterval,1
;   randomInfillStartPoint,1
;   infillAngles,45,-45
;   generateSupport,1
;   supportExtruder,0
;   supportInfill,25
;   supportExtraInflation,0
;   supportLayerInterval,1
;   supportHorizontalPartOffset,0.3
;   supportUpperSeparationLayers,1
;   supportLowerSeparationLayers,1
;   supportGridSpacing,4
;   maxOverhangAngle,45
;   supportAngles,0
;   temperatureName,Primary Extruder,Heated Bed
;   temperatureNumber,0,0
;   temperatureSetpointCount,1,1
;   temperatureSetpointLayers,1,1
;   temperatureSetpointTemperatures,200,55
;   temperatureStabilizeAtStartup,1,1
;   temperatureHeatedBed,0,1
;   temperatureRelayBetweenLayers,0,0
;   temperatureRelayBetweenLoops,0,0
;   fanLayers,1,1
;   fanSpeeds,0,100
;   blipFanToFullPower,1
;   adjustSpeedForCooling,1
;   minSpeedLayerTime,15
;   minCoolingSpeedSlowdown,20
;   increaseFanForCooling,0
;   minFanLayerTime,45
;   maxCoolingFanSpeed,100
;   increaseFanForBridging,0
;   bridgingFanSpeed,100
;   use5D,1
;   relativeEdistances,0
;   allowEaxisZeroing,1
;   includeM10123,0
;   stickySupport,1
;   detectArcs,0
;   arcReplaceG2G3,0
;   arcRadialCompensation,1
;   gcodeXoffset,0
;   gcodeYoffset,0
;   gcodeZoffset,0
;   overrideMachineDefinition,1
;   machineTypeOverride,0
;   strokeXoverride,150
;   strokeYoverride,150
;   strokeZoverride,150
;   originOffsetXoverride,0
;   originOffsetYoverride,0
;   originOffsetZoverride,0
;   homeXdirOverride,-1
;   homeYdirOverride,-1
;   homeZdirOverride,-1
;   flipXoverride,1
;   flipYoverride,-1
;   flipZoverride,1
;   startingGcode,G28 ; home all axes,G29 ; autolevel,G1 Z0.3 F200 ; move platform close to nozzle,G92 E0 ; reset extrusion distance,G1 E25 ; extrude anchor
;   layerChangeGcode,
;   toolChangeGcode,
;   endingGcode,M104 S0 T0 ; turn off extruder,M140 S0 T1 ; turn off bed,G28 X0 ; home X axis,M84 ; disable motors,M107 ; disable fan
;   createX3G,0
;   celebration,0
;   celebrationSong,Random Song
;   postProcessing,
;   defaultSpeed,3600
;   outlineUnderspeed,0.5
;   supportUnderspeed,0.8
;   rapidXYspeed,4800
;   rapidZspeed,1000
;   minBridgingArea,50
;   bridgingExtrusionMultiplier,1
;   bridgingSpeedMultiplier,1
;   filamentDiameter,1.75
;   filamentPricePerKg,46
;   useMinPrintHeight,0
;   minPrintHeight,0
;   useMaxPrintHeight,0
;   maxPrintHeight,0
;   overlapRemoval,0
;   overlapRemovalPercentage,0.3
;   useDiaphragm,0
;   diaphragmLayerInterval,20
;   robustSlicing,1
;   mergeAllIntoSolid,0
;   onlyRetractWhenCrossingOutline,1
;   retractBetweenLayers,1
;   useRetractionMinTravel,0
;   retractionMinTravel,3
;   useRetractionOozeRate,0
;   retractionOozeRate,100
;   onlyWipeOutlines,1
G90 ; use absolute coordinates
M82 ; absolute extrusion distances
G21 ; set units to millimeters
M106 S0
M140 S55
M190 S55
M104 S200 T0
M109 S200 T0
G28 ; home all axes
G29 ; autolevel
G1 Z0.3 F200 ; move platform close to nozzle
G92 E0 ; reset extrusion distance
G1 E25 ; extrude anchor
G92 E0
G1 E-1 F1800
; layer 1, Z = 0.27
T0
; tool H0.3 W0.4
G0 X65.039 Y64.394 F4800
G0 Z0.27 F1000
G1 E0 F540
G92 E0
G1 X65.46 Y64.014 E0.0255 F900
G1 X65.895 Y63.651 E0.0509
G1 X66.344 Y63.304 E0.0764
G1 X66.806 Y62.976 E0.1018
G1 X67.281 Y62.666 E0.1273
G1 X67.768 Y62.374 E0.1528
G1 X68.265 Y62.102 E0.1782
G1 X68.773 Y61.85 E0.2037
G1 X69.29 Y61.617 E0.2292
G1 X69.816 Y61.405 E0.2546
G1 X70.349 Y61.213 E0.2801
G1 X70.89 Y61.042 E0.3055
G1 X71.437 Y60.893 E0.331
G1 X71.99 Y60.765 E0.3565
G1 X72.546 Y60.658 E0.3819
G1 X73.107 Y60.573 E0.4074
G1 X73.671 Y60.51 E0.4329
G1 X74.236 Y60.47 E0.4583
G1 X74.803 Y60.451 E0.4838
G1 X75.37 Y60.454 E0.5092
G1 X75.936 Y60.48 E0.5347
G1 X76.502 Y60.527 E0.5602
G1 X77.064 Y60.597 E0.5856
G1 X77.624 Y60.688 E0.6111
G1 X78.18 Y60.801 E0.6365
G1 X78.731 Y60.936 E0.662
G1 X79.276 Y61.092 E0.6875
G1 X79.814 Y61.269 E0.7129
G1 X80.346 Y61.467 E0.7384
G1 X80.869 Y61.686 E0.7638
G1 X81.383 Y61.925 E0.7893
G1 X81.888 Y62.183 E0.8148
G1 X82.382 Y62.461 E0.8402
G1 X82.865 Y62.759 E0.8657
G1 X83.336 Y63.074 E0.8911
G1 X83.794 Y63.408 E0.9166
G1 X84.239 Y63.76 E0.9421
G1 X84.67 Y64.128 E0.9675
G1 X85.086 Y64.513 E0.993
G1 X85.487 Y64.914 E1.0185
G1 X85.873 Y65.331 E1.0439
G1 X86.241 Y65.761 E1.0694
G1 X86.592 Y66.207 E1.0948
G1 X86.926 Y66.665 E1.1203
G1 X87.242 Y67.136 E1.1458
G1 X87.539 Y67.619 E1.1712
G1 X87.817 Y68.113 E1.1967
G1 X88.076 Y68.618 E1.2221
G1 X88.314 Y69.132 E1.2476
G1 X88.533 Y69.655 E1.2731
G1 X88.731 Y70.187 E1.2985
G1 X88.908 Y70.725 E1.324
G1 X89.064 Y71.271 E1.3495
G1 X89.199 Y71.822 E1.3749
G1 X89.312 Y72.377 E1.4004
G1 X89.403 Y72.937 E1.4258
G1 X89.472 Y73.5 E1.4513
G1 X89.52 Y74.065 E1.4768
G1 X89.545 Y74.631 E1.5022
G1 X89.549 Y75.198 E1.5277
G1 X89.53 Y75.765 E1.5531
G1 X89.489 Y76.33 E1.5786
G1 X89.426 Y76.894 E1.6041
G1 X89.341 Y77.455 E1.6295
G1 X89.235 Y78.012 E1.655
G1 X89.107 Y78.564 E1.6805
G1 X88.957 Y79.111 E1.7059
G1 X88.786 Y79.652 E1.7314
G1 X88.595 Y80.185 E1.7568
G1 X88.382 Y80.711 E1.7823
G1 X88.149 Y81.228 E1.8078
G1 X87.897 Y81.736 E1.8332
G1 X87.624 Y82.233 E1.8587
G1 X87.333 Y82.72 E1.8841
G1 X87.023 Y83.194 E1.9096
G1 X86.694 Y83.657 E1.9351
G1 X86.348 Y84.106 E1.9605
G1 X85.985 Y84.541 E1.986
G1 X85.604 Y84.962 E2.0114
G1 X85.208 Y85.367 E2.0369
G1 X84.797 Y85.757 E2.0624
G1 X84.37 Y86.131 E2.0878
G1 X83.929 Y86.488 E2.1133
G1 X83.475 Y86.827 E2.1388
G1 X83.008 Y87.148 E2.1642
G1 X82.528 Y87.451 E2.1897
G1 X82.043 Y87.732 E2.2149
G1 X81.535 Y87.999 E2.2406
G1 X81.024 Y88.244 E2.2661
G1 X80.503 Y88.469 E2.2915
G1 X79.974 Y88.673 E2.317
G1 X79.7 Y88.767 E2.33
G1 X79.7 Y87.064 E2.4064
G1 X80.083 Y86.91 E2.425
G1 X80.578 Y86.687 E2.4494
G1 X81.064 Y86.442 E2.4738
G1 X81.539 Y86.177 E2.4982
G1 X82.003 Y85.893 E2.5227
G1 X82.454 Y85.589 E2.5471
G1 X82.892 Y85.267 E2.5715
G1 X83.317 Y84.926 E2.5959
G1 X83.726 Y84.568 E2.6204
G1 X84.12 Y84.193 E2.6448
G1 X84.498 Y83.802 E2.6692
G1 X84.86 Y83.395 E2.6936
G1 X85.204 Y82.974 E2.7181
G1 X85.529 Y82.538 E2.7425
G1 X85.837 Y82.09 E2.7669
G1 X86.125 Y81.628 E2.7913
G1 X86.393 Y81.155 E2.8157
G1 X86.642 Y80.671 E2.8402
G1 X86.87 Y80.177 E2.8646
G1 X87.077 Y79.674 E2.889
G1 X87.262 Y79.163 E2.9134
G1 X87.426 Y78.644 E2.9379
G1 X87.569 Y78.119 E2.9623
G1 X87.689 Y77.589 E2.9867
G1 X87.786 Y77.054 E3.0111
G1 X87.861 Y76.515 E3.0356
G1 X87.913 Y75.973 E3.06
G1 X87.943 Y75.43 E3.0844
G1 X87.949 Y74.886 E3.1088
G1 X87.933 Y74.343 E3.1333
G1 X87.894 Y73.8 E3.1577
G1 X87.832 Y73.259 E3.1821
G1 X87.748 Y72.722 E3.2065
G1 X87.641 Y72.189 E3.231
G1 X87.512 Y71.66 E3.2554
G1 X87.361 Y71.138 E3.2798
G1 X87.188 Y70.622 E3.3042
G1 X86.993 Y70.114 E3.3287
G1 X86.777 Y69.615 E3.3531
G1 X86.541 Y69.125 E3.3775
G1 X86.284 Y68.645 E3.4019
G1 X86.007 Y68.177 E3.4264
G1 X85.711 Y67.721 E3.4508
G1 X85.396 Y67.278 E3.4752
G1 X85.062 Y66.848 E3.4996
G1 X84.711 Y66.432 E3.5241
G1 X84.343 Y66.032 E3.5485
G1 X83.958 Y65.648 E3.5729
G1 X83.557 Y65.28 E3.5973
G1 X83.141 Y64.929 E3.6218
G1 X82.711 Y64.596 E3.6462
G1 X82.268 Y64.281 E3.6706
G1 X81.811 Y63.986 E3.695
G1 X81.343 Y63.709 E3.7195
G1 X80.863 Y63.453 E3.7439
G1 X80.373 Y63.217 E3.7683
G1 X79.873 Y63.002 E3.7927
G1 X79.365 Y62.807 E3.8172
G1 X78.849 Y62.635 E3.8416
G1 X78.326 Y62.484 E3.866
G1 X77.798 Y62.356 E3.8904
G1 X77.264 Y62.249 E3.9149
G1 X76.727 Y62.165 E3.9393
G1 X76.186 Y62.104 E3.9637
G1 X75.644 Y62.066 E3.9881
G1 X75.1 Y62.05 E4.0126
G1 X74.556 Y62.057 E4.037
G1 X74.013 Y62.087 E4.0614
G1 X73.472 Y62.14 E4.0858
G1 X72.933 Y62.216 E4.1103
G1 X72.398 Y62.314 E4.1347
G1 X71.867 Y62.434 E4.1591
G1 X71.343 Y62.577 E4.1835
G1 X70.824 Y62.741 E4.208
G1 X70.313 Y62.928 E4.2324
G1 X69.81 Y63.135 E4.2568
G1 X69.316 Y63.364 E4.2812
G1 X68.833 Y63.612 E4.3057
G1 X68.36 Y63.882 E4.3301
G1 X67.899 Y64.17 E4.3545
G1 X67.45 Y64.478 E4.3789
G1 X67.015 Y64.804 E4.4033
G1 X66.594 Y65.149 E4.4278
G1 X66.188 Y65.51 E4.4522
G1 X65.797 Y65.889 E4.4766
G1 X65.423 Y66.283 E4.501
G1 X65.065 Y66.693 E4.5255
G1 X64.725 Y67.118 E4.5499
G1 X64.403 Y67.556 E4.5743
G1 X64.1 Y68.008 E4.5987
G1 X63.816 Y68.472 E4.6232
G1 X63.551 Y68.947 E4.6476
G1 X63.307 Y69.433 E4.672
G1 X63.084 Y69.929 E4.6964
G1 X62.935 Y70.3 E4.7144
G1 X61.233 Y70.299 E4.7908
G1 X61.327 Y70.024 E4.8039
G1 X61.532 Y69.495 E4.8293
G1 X61.756 Y68.974 E4.8548
G1 X62.001 Y68.463 E4.8803
G1 X62.266 Y67.961 E4.9057
G1 X62.55 Y67.47 E4.9312
G1 X62.853 Y66.991 E4.9566
G1 X63.174 Y66.524 E4.9821
G1 X63.513 Y66.069 E5.0076
G1 X63.87 Y65.628 E5.033
G1 X64.243 Y65.202 E5.0585
G1 X64.633 Y64.79 E5.0839
G1 X65.039 Y64.394 E5.1094
G0 X67.279 Y64.183 F4800
G92 E0
G1 X69.607 Y61.856 E0.1478 F1800
G1 X69.937 Y61.722 E0.1638
G1 X70.458 Y61.535 E0.1886
G1 X70.509 Y61.519 E0.191
G1 X68.761 Y63.267 E0.302
G1 X69.167 Y63.058 E0.3226
G1 X69.674 Y62.824 E0.3476
G1 X69.838 Y62.756 E0.3556
G1 X71.315 Y61.278 E0.4494
G1 X71.52 Y61.222 E0.4589
G1 X72.06 Y61.097 E0.4838
G1 X72.063 Y61.097 E0.4839
G1 X70.752 Y62.408 E0.5672
G1 X71.247 Y62.251 E0.5905
G1 X71.559 Y62.166 E0.6051
G1 X72.755 Y60.97 E0.681
G1 X73.151 Y60.91 E0.699
G1 X73.409 Y60.882 E0.7106
G1 X72.304 Y61.986 E0.7808
G1 X72.33 Y61.981 E0.7819
G1 X72.879 Y61.88 E0.807
G1 X72.992 Y61.864 E0.8121
G1 X74.031 Y60.825 E0.8781
G1 X74.254 Y60.809 E0.8881
G1 X74.625 Y60.797 E0.9048
G1 X73.64 Y61.782 E0.9673
G1 X73.987 Y61.748 E0.983
G1 X74.254 Y61.733 E0.995
G1 X75.194 Y60.793 E1.0547
G1 X75.361 Y60.794 E1.0622
G1 X75.742 Y60.811 E1.0793
G1 X74.84 Y61.713 E1.1366
G1 X75.103 Y61.71 E1.1484
G1 X75.401 Y61.719 E1.1618
G1 X76.27 Y60.849 E1.217
G1 X76.467 Y60.866 E1.2259
G1 X76.78 Y60.904 E1.2401
G1 X75.939 Y61.746 E1.2935
G1 X76.218 Y61.766 E1.306
G1 X76.458 Y61.793 E1.3169
G1 X77.275 Y60.976 E1.3688
G1 X77.563 Y61.023 E1.3819
G1 X77.754 Y61.062 E1.3906
G1 X76.959 Y61.857 E1.4412
G1 X77.324 Y61.914 E1.4577
G1 X77.444 Y61.938 E1.4632
G1 X78.221 Y61.161 E1.5126
G1 X78.644 Y61.265 E1.5321
G1 X78.674 Y61.274 E1.5335
G1 X77.914 Y62.034 E1.5818
G1 X78.369 Y62.145 E1.6028
G1 X79.114 Y61.399 E1.6502
G1 X79.176 Y61.417 E1.653
G1 X79.542 Y61.537 E1.6703
G1 X78.809 Y62.27 E1.7168
G1 X78.95 Y62.31 E1.7234
G1 X79.238 Y62.407 E1.737
G1 X79.959 Y61.686 E1.7828
G1 X80.221 Y61.784 E1.7954
G1 X80.366 Y61.844 E1.8024
G1 X79.656 Y62.555 E1.8475
G1 X80.001 Y62.687 E1.8641
G1 X80.063 Y62.713 E1.8672
G1 X80.764 Y62.012 E1.9117
G1 X81.15 Y62.191 E1.9308
G1 X80.458 Y62.883 E1.9747
G1 X80.514 Y62.907 E1.9775
G1 X80.842 Y63.065 E1.9938
G1 X81.527 Y62.38 E2.0373
G1 X81.727 Y62.483 E2.0474
G1 X81.895 Y62.578 E2.0561
G1 X81.217 Y63.256 E2.0992
G1 X81.509 Y63.413 E2.1141
G1 X81.583 Y63.456 E2.1179
G1 X82.256 Y62.783 E2.1607
G1 X82.606 Y62.998 E2.1791
G1 X81.938 Y63.666 E2.2215
G1 X81.99 Y63.696 E2.2242
G1 X82.284 Y63.887 E2.2399
G1 X82.947 Y63.223 E2.282
G1 X83.141 Y63.353 E2.2925
G1 X83.281 Y63.455 E2.3003
G1 X82.621 Y64.115 E2.3422
G1 X82.914 Y64.323 E2.3583
G1 X82.95 Y64.351 E2.3604
G1 X83.608 Y63.694 E2.4021
G1 X83.924 Y63.944 E2.4202
G1 X83.269 Y64.598 E2.4618
G1 X83.355 Y64.665 E2.4667
G1 X83.579 Y64.854 E2.4798
G1 X84.232 Y64.201 E2.5213
G1 X84.444 Y64.382 E2.5338
G1 X84.534 Y64.465 E2.5393
G1 X83.882 Y65.116 E2.5806
G1 X84.177 Y65.387 E2.5986
G1 X84.827 Y64.737 E2.6399
G1 X84.851 Y64.758 E2.6414
G1 X85.111 Y65.019 E2.6579
G1 X84.461 Y65.669 E2.6992
G1 X84.588 Y65.797 E2.7073
G1 X84.737 Y65.959 E2.7172
G1 X85.388 Y65.308 E2.7585
G1 X85.618 Y65.557 E2.7737
G1 X85.658 Y65.603 E2.7765
G1 X85.006 Y66.255 E2.8179
G1 X85.265 Y66.562 E2.8359
G1 X85.919 Y65.908 E2.8774
G1 X85.978 Y65.978 E2.8815
G1 X86.171 Y66.222 E2.8955
G1 X85.515 Y66.877 E2.9371
G1 X85.669 Y67.075 E2.9483
G1 X85.758 Y67.2 E2.9552
G1 X86.416 Y66.542 E2.997
G1 X86.648 Y66.86 E3.0147
G1 X86.654 Y66.87 E3.0152
G1 X85.993 Y67.531 E3.0572
G1 X86.216 Y67.874 E3.0756
G1 X86.881 Y67.209 E3.1178
G1 X86.956 Y67.319 E3.1238
G1 X87.1 Y67.555 E3.1363
G1 X86.43 Y68.225 E3.1788
G1 X86.58 Y68.479 E3.192
G1 X86.637 Y68.584 E3.1974
G1 X87.312 Y67.909 E3.2403
G1 X87.516 Y68.271 E3.259
G1 X86.834 Y68.953 E3.3022
G1 X86.844 Y68.971 E3.3032
G1 X87.019 Y69.333 E3.3212
G1 X87.708 Y68.645 E3.365
G1 X87.77 Y68.767 E3.3711
G1 X87.891 Y69.027 E3.384
G1 X87.195 Y69.724 E3.4282
G1 X87.308 Y69.986 E3.441
G1 X87.361 Y70.123 E3.4477
G1 X88.065 Y69.418 E3.4924
G1 X88.217 Y69.78 E3.51
G1 X88.231 Y69.819 E3.5119
G1 X87.516 Y70.533 E3.5572
G1 X87.659 Y70.957 E3.5773
G1 X88.384 Y70.231 E3.6234
G1 X88.41 Y70.3 E3.6267
G1 X88.527 Y70.654 E3.6434
G1 X87.788 Y71.393 E3.6903
G1 X87.841 Y71.573 E3.6988
G1 X87.906 Y71.841 E3.7111
G1 X88.658 Y71.088 E3.7589
G1 X88.735 Y71.358 E3.7715
G1 X88.778 Y71.534 E3.7796
G1 X88.011 Y72.302 E3.8284
G1 X88.083 Y72.662 E3.8449
G1 X88.101 Y72.777 E3.8501
G1 X88.886 Y71.992 E3.9
G1 X88.977 Y72.439 E3.9204
G1 X88.981 Y72.463 E3.9215
G1 X88.176 Y73.268 E3.9727
G1 X88.233 Y73.768 E3.9953
G1 X88.233 Y73.776 E3.9956
G1 X89.06 Y72.949 E4.0482
G1 X89.066 Y72.985 E4.0498
G1 X89.124 Y73.451 E4.0709
G1 X88.271 Y74.304 E4.125
G1 X88.273 Y74.325 E4.126
G1 X88.289 Y74.852 E4.1497
G1 X89.171 Y73.97 E4.2057
G1 X89.181 Y74.087 E4.2109
G1 X89.199 Y74.507 E4.2298
G1 X88.283 Y75.424 E4.288
G1 X88.283 Y75.441 E4.2888
G1 X88.252 Y75.999 E4.3139
G1 X88.25 Y76.022 E4.3149
G1 X89.208 Y75.064 E4.3758
G1 X89.209 Y75.194 E4.3816
G1 X89.194 Y75.644 E4.4018
G1 X88.185 Y76.653 E4.4658
G1 X88.122 Y77.107 E4.4865
G1 X88.083 Y77.32 E4.4962
G1 X89.154 Y76.249 E4.5642
G1 X89.15 Y76.299 E4.5664
G1 X89.089 Y76.85 E4.5913
G1 X89.084 Y76.886 E4.5929
G1 X87.937 Y78.032 E4.6657
G1 X87.899 Y78.201 E4.6735
G1 X87.753 Y78.74 E4.6986
G1 X87.733 Y78.801 E4.7015
G1 X88.975 Y77.56 E4.7803
G1 X88.902 Y77.942 E4.7978
G1 X88.824 Y78.276 E4.8132
G1 X87.445 Y79.655 E4.9008
G1 X87.394 Y79.797 E4.9075
G1 X87.182 Y80.313 E4.9326
G1 X87.035 Y80.631 E4.9484
G1 X88.621 Y79.045 E5.0491
G1 X88.464 Y79.543 E5.0726
G1 X88.338 Y79.894 E5.0893
G1 X86.396 Y81.836 E5.2126
G1 X86.121 Y82.276 E5.2359
G1 X85.806 Y82.736 E5.261
G1 X85.471 Y83.183 E5.286
G1 X85.119 Y83.616 E5.3111
G1 X84.748 Y84.033 E5.3362
G1 X84.36 Y84.434 E5.3612
G1 X83.955 Y84.819 E5.3863
G1 X83.535 Y85.187 E5.4114
G1 X83.1 Y85.536 E5.4364
G1 X82.65 Y85.867 E5.4615
G1 X82.187 Y86.179 E5.4866
G1 X81.841 Y86.391 E5.5048
G1 X80.04 Y88.192 E5.6191
G1 X80.04 Y88.283 E5.6232
G1 X80.375 Y88.154 E5.6393
G1 X80.848 Y87.95 E5.6625
G1 X87.946 Y80.851 E6.1132
G1 X87.842 Y81.083 E6.1246
G1 X87.595 Y81.579 E6.1495
G1 X87.366 Y81.997 E6.1709
G1 X82 Y87.364 E6.5117
G1 X82.352 Y87.16 E6.53
G1 X82.82 Y86.864 E6.5548
G1 X83.277 Y86.55 E6.5797
G1 X83.679 Y86.25 E6.6022
G1 X86.241 Y83.688 E6.7649
G1 X86.083 Y83.893 E6.7765
G1 X85.728 Y84.318 E6.8014
G1 X85.357 Y84.729 E6.8262
G1 X84.97 Y85.125 E6.8511
G1 X84.567 Y85.506 E6.876
G1 X84.151 Y85.871 E6.9008
G1 X83.72 Y86.219 E6.9257
G1 X83.679 Y86.25 E6.928
G0 X81.841 Y86.391 F4800
G92 E0
G1 X81.711 Y86.471 E0.0068 F1800
G1 X81.224 Y86.742 E0.0319
