; G-Code generated by Simplify3D(TM) Version 2.2.0
; Dec 14, 2014 at 11:42:36 PM
; Settings Summary
;   processName,Printrbot Metial Simple
;   applyToModels,Pendant03
;   profileLabel,_PrintrBotMetal.fff
;   printMaterial,PLA
;   printQuality,Fast
;   extruderName,Primary Extruder
;   extruderToolheadNumber,0
;   extruderDiameter,0.4
;   extruderAutoWidth,0
;   extruderWidth,0.4
;   extrusionMultiplier,0.9
;   extruderUseRetract,1
;   extruderRetractionDistance,1
;   extruderExtraRestartDistance,0
;   extruderRetractionZLift,0
;   extruderRetractionSpeed,1800
;   extruderUseCoasting,0
;   extruderCoastingDistance,0.2
;   extruderUseWipe,0
;   extruderWipeDistance,5
;   primaryExtruder,0
;   layerHeight,0.3
;   topSolidLayers,1
;   bottomSolidLayers,1
;   perimeterOutlines,2
;   printPerimetersInsideOut,1
;   startPointOption,2
;   startPointOriginX,0
;   startPointOriginY,0
;   startPointOriginZ,300
;   sequentialIslands,0
;   spiralVaseMode,0
;   firstLayerHeightPercentage,90
;   firstLayerWidthPercentage,100
;   firstLayerUnderspeed,0.5
;   useRaft,0
;   raftExtruder,0
;   raftLayers,3
;   raftOffset,3
;   raftSeparationDistance,0.14
;   raftInfill,85
;   disableRaftBaseLayers,0
;   useSkirt,0
;   skirtExtruder,0
;   skirtLayers,1
;   skirtOutlines,2
;   skirtOffset,4
;   infillExtruder,0
;   externalInfillPattern,Rectilinear
;   infillPercentage,15
;   outlineOverlapPercentage,15
;   infillExtrusionWidthPercentage,100
;   minInfillLength,5
;   infillLayerInterval,1
;   randomInfillStartPoint,0
;   infillAngles,45,-45
;   generateSupport,0
;   supportExtruder,0
;   supportInfill,25
;   supportExtraInflation,0
;   denseSupportLayers,0
;   denseSupportInfill,70
;   supportLayerInterval,1
;   supportHorizontalPartOffset,0.3
;   supportUpperSeparationLayers,1
;   supportLowerSeparationLayers,1
;   supportGridSpacing,4
;   maxOverhangAngle,45
;   supportAngles,0
;   temperatureName,Primary Extruder,Heated Bed
;   temperatureNumber,0,1
;   temperatureSetpointCount,1,1
;   temperatureSetpointLayers,1,1
;   temperatureSetpointTemperatures,200,45
;   temperatureStabilizeAtStartup,1,1
;   temperatureHeatedBed,0,1
;   temperatureRelayBetweenLayers,0,0
;   temperatureRelayBetweenLoops,0,0
;   fanLayers,1,2
;   fanSpeeds,0,100
;   blipFanToFullPower,1
;   adjustSpeedForCooling,1
;   minSpeedLayerTime,15
;   minCoolingSpeedSlowdown,20
;   increaseFanForCooling,0
;   minFanLayerTime,45
;   maxCoolingFanSpeed,100
;   increaseFanForBridging,0
;   bridgingFanSpeed,100
;   use5D,1
;   relativeEdistances,0
;   allowEaxisZeroing,1
;   independentExtruderAxes,0
;   includeM10123,0
;   stickySupport,1
;   detectArcs,0
;   arcReplaceG2G3,0
;   arcRadialCompensation,1
;   gcodeXoffset,0
;   gcodeYoffset,0
;   gcodeZoffset,0
;   overrideMachineDefinition,1
;   machineTypeOverride,0
;   strokeXoverride,150
;   strokeYoverride,150
;   strokeZoverride,150
;   originOffsetXoverride,0
;   originOffsetYoverride,0
;   originOffsetZoverride,0
;   homeXdirOverride,-1
;   homeYdirOverride,-1
;   homeZdirOverride,-1
;   flipXoverride,1
;   flipYoverride,-1
;   flipZoverride,1
;   startingGcode,G28 ; home all axes,G29 ;,G1 E25.0 ; extrude 25mm,G92 E0.0 ; reset the Extruder distance to zero (no motion as a result of this command).
;   layerChangeGcode,
;   toolChangeGcode,
;   endingGcode,M104 S0 T0 ; turn off extruder,M140 S0 T1 ; turn off bed,G28 X0 ; home X axis,M84 ; disable motors,M107 ; Turn off fan
;   createX3G,0
;   celebration,0
;   celebrationSong,Random Song
;   createMB5G,0
;   postProcessing,
;   defaultSpeed,3600
;   outlineUnderspeed,0.5
;   solidInfillUnderspeed,0.8
;   supportUnderspeed,0.8
;   rapidXYspeed,4800
;   rapidZspeed,1000
;   minBridgingArea,50
;   bridgingExtrusionMultiplier,1
;   bridgingSpeedMultiplier,1
;   filamentDiameter,1.75
;   filamentPricePerKg,46
;   useMinPrintHeight,0
;   minPrintHeight,0
;   useMaxPrintHeight,0
;   maxPrintHeight,0
;   useDiaphragm,0
;   diaphragmLayerInterval,20
;   robustSlicing,1
;   mergeAllIntoSolid,0
;   onlyRetractWhenCrossingOutline,1
;   retractBetweenLayers,1
;   useRetractionMinTravel,0
;   retractionMinTravel,3
;   useRetractionOozeRate,0
;   retractionOozeRate,100
;   onlyWipeOutlines,1
;   toolChangeRetractionDistance,12
;   toolChangeExtraRestartDistance,-0.5
;   toolChangeRetractionSpeed,600
;   allowThinWallGapFill,1
;   thinWallAllowedOverlapPercentage,10
G90
M82
M106 S0
M140 S45
M190 S45
M104 S200 T0
M109 S200 T0
G28 ; home all axes
G29 ;
G1 E25.0 ; extrude 25mm
G92 E0.0 ; reset the Extruder distance to zero (no motion as a result of this command).
G92 E0
G1 E-1 F1800
; layer 1, Z = 0.27
T0
; tool H0.3 W0.4
G1 X66.954 Y66.644 F4800
G1 Z0.27 F1000
G1 E0 F540
G92 E0
G1 X66.53 Y67.074 E0.0271 F1350
G1 X66.255 Y67.379 E0.0456
G1 X65.87 Y67.845 E0.0727
G1 X65.507 Y68.333 E0.1
G1 X65.172 Y68.838 E0.1272
G1 X64.863 Y69.361 E0.1545
G1 X64.583 Y69.897 E0.1817
G1 X64.404 Y70.279 E0.2006
G1 X64.327 Y70.457 E0.2093
G1 X64.105 Y71.017 E0.2363
G1 X63.912 Y71.592 E0.2636
G1 X63.749 Y72.175 E0.2908
G1 X63.657 Y72.574 E0.3092
G1 X63.546 Y73.166 E0.3362
G1 X63.488 Y73.572 E0.3546
G1 X63.429 Y74.174 E0.3818
G1 X63.402 Y74.778 E0.4089
G1 X63.402 Y75.205 E0.4281
G1 X63.428 Y75.809 E0.4553
G1 X63.486 Y76.414 E0.4825
G1 X63.576 Y77.014 E0.5098
G1 X63.697 Y77.609 E0.5371
G1 X63.849 Y78.197 E0.5643
G1 X64.031 Y78.774 E0.5915
G1 X64.171 Y79.159 E0.6099
G1 X64.403 Y79.718 E0.6371
G1 X64.664 Y80.266 E0.6643
G1 X64.954 Y80.8 E0.6916
G1 X65.271 Y81.318 E0.7189
G1 X65.614 Y81.816 E0.746
G1 X65.861 Y82.144 E0.7644
G1 X66.245 Y82.61 E0.7916
G1 X66.655 Y83.058 E0.8188
G1 X67.087 Y83.482 E0.846
G1 X67.392 Y83.756 E0.8644
G1 X67.858 Y84.141 E0.8916
G1 X68.346 Y84.502 E0.9188
G1 X68.853 Y84.838 E0.9461
G1 X69.376 Y85.146 E0.9734
G1 X69.912 Y85.425 E1.0005
G1 X70.284 Y85.598 E1.0189
G1 X70.84 Y85.829 E1.046
G1 X71.226 Y85.969 E1.0644
G1 X71.803 Y86.151 E1.0915
G1 X72.39 Y86.303 E1.1188
G1 X72.986 Y86.424 E1.1461
G1 X73.586 Y86.514 E1.1733
G1 X74.188 Y86.572 E1.2005
G1 X74.598 Y86.593 E1.2189
G1 X75.202 Y86.598 E1.2461
G1 X75.809 Y86.572 E1.2733
G1 X76.411 Y86.514 E1.3005
G1 X76.817 Y86.457 E1.3189
G1 X77.412 Y86.347 E1.3461
G1 X78.002 Y86.205 E1.3733
G1 X78.585 Y86.032 E1.4006
G1 X79.157 Y85.83 E1.4279
G1 X79.718 Y85.597 E1.4551
G1 X80.266 Y85.336 E1.4824
G1 X80.798 Y85.047 E1.5095
G1 X81.149 Y84.836 E1.528
G1 X81.654 Y84.502 E1.5551
G1 X82.142 Y84.141 E1.5824
G1 X82.609 Y83.756 E1.6095
G1 X82.913 Y83.482 E1.6279
G1 X83.345 Y83.058 E1.6551
G1 X83.755 Y82.61 E1.6824
G1 X84.139 Y82.144 E1.7095
G1 X84.386 Y81.816 E1.7279
G1 X84.729 Y81.318 E1.7551
G1 X85.046 Y80.8 E1.7824
G1 X85.336 Y80.266 E1.8096
G1 X85.597 Y79.718 E1.8369
G1 X85.829 Y79.16 E1.8641
G1 X85.969 Y78.774 E1.8825
G1 X86.151 Y78.197 E1.9096
G1 X86.303 Y77.61 E1.9369
G1 X86.424 Y77.014 E1.9642
G1 X86.514 Y76.414 E1.9914
G1 X86.572 Y75.812 E2.0186
G1 X86.593 Y75.402 E2.037
G1 X86.599 Y74.814 E2.0634
G1 X86.573 Y74.208 E2.0906
G1 X86.516 Y73.603 E2.1179
G1 X86.427 Y73.003 E2.1452
G1 X86.307 Y72.407 E2.1725
G1 X86.155 Y71.819 E2.1997
G1 X85.974 Y71.242 E2.2269
G1 X85.835 Y70.857 E2.2453
G1 X85.604 Y70.297 E2.2724
G1 X85.344 Y69.749 E2.2997
G1 X85.055 Y69.215 E2.327
G1 X84.738 Y68.696 E2.3543
G1 X84.396 Y68.198 E2.3814
G1 X84.15 Y67.87 E2.3998
G1 X83.766 Y67.403 E2.427
G1 X83.356 Y66.954 E2.4542
G1 X82.926 Y66.53 E2.4814
G1 X82.621 Y66.255 E2.4998
G1 X82.155 Y65.87 E2.527
G1 X81.667 Y65.508 E2.5542
G1 X81.161 Y65.172 E2.5815
G1 X80.641 Y64.864 E2.6086
G1 X80.279 Y64.671 E2.6271
G1 X79.734 Y64.41 E2.6542
G1 X79.175 Y64.177 E2.6814
G1 X78.79 Y64.037 E2.6998
G1 X78.214 Y63.854 E2.7269
G1 X77.626 Y63.701 E2.7542
G1 X77.031 Y63.579 E2.7815
G1 X76.431 Y63.488 E2.8087
G1 X75.829 Y63.43 E2.8359
G1 X75.419 Y63.408 E2.8543
G1 X74.815 Y63.401 E2.8815
G1 X74.208 Y63.427 E2.9087
G1 X73.606 Y63.484 E2.9359
G1 X73.2 Y63.541 E2.9543
G1 X72.605 Y63.65 E2.9814
G1 X72.014 Y63.791 E3.0087
G1 X71.432 Y63.962 E3.036
G1 X70.859 Y64.164 E3.0632
G1 X70.297 Y64.396 E3.0905
G1 X69.749 Y64.657 E3.1178
G1 X69.215 Y64.945 E3.145
G1 X68.699 Y65.261 E3.1722
G1 X68.358 Y65.49 E3.1906
G1 X67.872 Y65.849 E3.2178
G1 X67.403 Y66.234 E3.245
G1 X66.954 Y66.644 E3.2723
G1 X67.232 Y66.932 F4800
G92 E0
G1 X66.821 Y67.349 E0.0263 F900
G1 X66.558 Y67.64 E0.0439
G1 X66.184 Y68.092 E0.0702
G1 X65.835 Y68.562 E0.0965
G1 X65.511 Y69.051 E0.1229
G1 X65.212 Y69.556 E0.1492
G1 X64.941 Y70.075 E0.1755
G1 X64.769 Y70.444 E0.1938
G1 X64.696 Y70.61 E0.2019
G1 X64.481 Y71.154 E0.2282
G1 X64.294 Y71.71 E0.2545
G1 X64.137 Y72.274 E0.2808
G1 X64.048 Y72.656 E0.2984
G1 X63.941 Y73.231 E0.3247
G1 X63.885 Y73.62 E0.3423
G1 X63.829 Y74.202 E0.3686
G1 X63.802 Y74.787 E0.3949
G1 X63.802 Y75.196 E0.4133
G1 X63.827 Y75.781 E0.4396
G1 X63.883 Y76.365 E0.4659
G1 X63.97 Y76.945 E0.4922
G1 X64.087 Y77.519 E0.5185
G1 X64.234 Y78.087 E0.5449
G1 X64.41 Y78.646 E0.5712
G1 X64.544 Y79.015 E0.5888
G1 X64.768 Y79.555 E0.6151
G1 X65.021 Y80.085 E0.6414
G1 X65.3 Y80.6 E0.6677
G1 X65.607 Y81.1 E0.6941
G1 X65.938 Y81.582 E0.7204
G1 X66.175 Y81.896 E0.738
G1 X66.547 Y82.348 E0.7643
G1 X66.943 Y82.78 E0.7906
G1 X67.361 Y83.191 E0.8169
G1 X67.653 Y83.453 E0.8345
G1 X68.105 Y83.826 E0.8608
G1 X68.576 Y84.175 E0.8871
G1 X69.065 Y84.498 E0.9135
G1 X69.57 Y84.796 E0.9398
G1 X70.089 Y85.066 E0.9661
G1 X70.445 Y85.232 E0.9837
G1 X70.985 Y85.456 E1.01
G1 X71.354 Y85.59 E1.0276
G1 X71.913 Y85.766 E1.0539
G1 X72.481 Y85.913 E1.0802
G1 X73.055 Y86.03 E1.1065
G1 X73.635 Y86.117 E1.1329
G1 X74.218 Y86.173 E1.1592
G1 X74.61 Y86.193 E1.1768
G1 X75.195 Y86.198 E1.2031
G1 X75.781 Y86.173 E1.2294
G1 X76.364 Y86.117 E1.2557
G1 X76.753 Y86.062 E1.2733
G1 X77.329 Y85.955 E1.2996
G1 X77.899 Y85.818 E1.326
G1 X78.461 Y85.652 E1.3523
G1 X79.014 Y85.456 E1.3786
G1 X79.555 Y85.232 E1.4049
G1 X80.085 Y84.979 E1.4313
G1 X80.599 Y84.7 E1.4576
G1 X80.936 Y84.498 E1.4752
G1 X81.424 Y84.175 E1.5015
G1 X81.895 Y83.826 E1.5278
G1 X82.347 Y83.453 E1.5541
G1 X82.639 Y83.191 E1.5717
G1 X83.057 Y82.78 E1.598
G1 X83.453 Y82.348 E1.6243
G1 X83.825 Y81.896 E1.6506
G1 X84.062 Y81.583 E1.6683
G1 X84.393 Y81.1 E1.6946
G1 X84.7 Y80.6 E1.7209
G1 X84.979 Y80.085 E1.7472
G1 X85.232 Y79.555 E1.7735
G1 X85.456 Y79.015 E1.7998
G1 X85.59 Y78.646 E1.8175
G1 X85.766 Y78.087 E1.8438
G1 X85.913 Y77.519 E1.8701
G1 X86.03 Y76.945 E1.8964
G1 X86.117 Y76.365 E1.9227
G1 X86.173 Y75.782 E1.949
G1 X86.193 Y75.39 E1.9667
G1 X86.198 Y74.821 E1.9922
G1 X86.174 Y74.235 E2.0185
G1 X86.118 Y73.651 E2.0449
G1 X86.033 Y73.071 E2.0712
G1 X85.917 Y72.497 E2.0975
G1 X85.771 Y71.929 E2.1239
G1 X85.595 Y71.37 E2.1501
G1 X85.462 Y71.001 E2.1678
G1 X85.238 Y70.46 E2.1941
G1 X84.987 Y69.93 E2.2204
G1 X84.708 Y69.414 E2.2467
G1 X84.402 Y68.914 E2.273
G1 X84.071 Y68.431 E2.2993
G1 X83.835 Y68.117 E2.317
G1 X83.464 Y67.665 E2.3433
G1 X83.068 Y67.232 E2.3696
G1 X82.651 Y66.821 E2.3959
G1 X82.36 Y66.558 E2.4135
G1 X81.908 Y66.184 E2.4398
G1 X81.438 Y65.835 E2.4661
G1 X80.949 Y65.511 E2.4925
G1 X80.445 Y65.213 E2.5187
G1 X80.099 Y65.028 E2.5364
G1 X79.57 Y64.775 E2.5627
G1 X79.03 Y64.55 E2.589
G1 X78.661 Y64.415 E2.6066
G1 X78.103 Y64.238 E2.6329
G1 X77.535 Y64.091 E2.6592
G1 X76.961 Y63.973 E2.6855
G1 X76.381 Y63.886 E2.7119
G1 X75.799 Y63.829 E2.7381
G1 X75.406 Y63.807 E2.7558
G1 X74.821 Y63.801 E2.7821
G1 X74.235 Y63.826 E2.8084
G1 X73.652 Y63.881 E2.8347
G1 X73.263 Y63.936 E2.8523
G1 X72.688 Y64.041 E2.8786
G1 X72.117 Y64.177 E2.9049
G1 X71.555 Y64.343 E2.9313
G1 X71.002 Y64.538 E2.9576
G1 X70.46 Y64.762 E2.9839
G1 X69.93 Y65.013 E3.0102
G1 X69.414 Y65.292 E3.0366
G1 X68.915 Y65.597 E3.0629
G1 X68.589 Y65.817 E3.0805
G1 X68.118 Y66.164 E3.1068
G1 X67.665 Y66.536 E3.1331
G1 X67.232 Y66.932 E3.1594
G1 X63.052 Y63.048 F4800
G92 E0
G1 X63.472 Y62.642 E0.0263 F1350
G1 X64.137 Y62.054 E0.0661
G1 X64.829 Y61.503 E0.1058
G1 X65.55 Y60.989 E0.1456
G1 X66.296 Y60.514 E0.1853
G1 X67.066 Y60.078 E0.225
G1 X67.858 Y59.684 E0.2647
G1 X68.672 Y59.33 E0.3046
G1 X69.217 Y59.12 E0.3308
G1 X70.059 Y58.839 E0.3707
G1 X70.912 Y58.602 E0.4104
G1 X71.775 Y58.411 E0.4501
G1 X72.648 Y58.265 E0.4899
G1 X73.53 Y58.164 E0.5297
G1 X74.113 Y58.123 E0.556
G1 X75 Y58.1 E0.5958
G1 X75.887 Y58.123 E0.6356
G1 X76.47 Y58.164 E0.6619
G1 X77.352 Y58.265 E0.7017
G1 X78.225 Y58.411 E0.7415
G1 X79.091 Y58.603 E0.7813
G1 X79.656 Y58.754 E0.8076
G1 X80.502 Y59.021 E0.8474
G1 X81.331 Y59.331 E0.8871
G1 X82.142 Y59.684 E0.9269
G1 X82.934 Y60.078 E0.9666
G1 X83.704 Y60.514 E1.0063
G1 X84.453 Y60.991 E1.0462
G1 X84.931 Y61.326 E1.0724
G1 X85.635 Y61.866 E1.1123
G1 X86.308 Y62.441 E1.152
G1 X86.952 Y63.052 E1.1918
G1 X87.358 Y63.472 E1.2181
G1 X87.946 Y64.137 E1.2579
G1 X88.497 Y64.829 E1.2977
G1 X89.011 Y65.55 E1.3374
G1 X89.486 Y66.296 E1.3771
G1 X89.922 Y67.066 E1.4168
G1 X90.316 Y67.858 E1.4566
G1 X90.67 Y68.672 E1.4964
G1 X90.88 Y69.217 E1.5227
G1 X91.161 Y70.059 E1.5625
G1 X91.398 Y70.912 E1.6022
G1 X91.589 Y71.775 E1.642
G1 X91.735 Y72.648 E1.6817
G1 X91.836 Y73.53 E1.7215
G1 X91.877 Y74.113 E1.7478
G1 X91.9 Y75 E1.7876
G1 X91.877 Y75.884 E1.8273
G1 X91.836 Y76.468 E1.8536
G1 X91.736 Y77.349 E1.8934
G1 X91.59 Y78.222 E1.9332
G1 X91.398 Y79.088 E1.973
G1 X91.247 Y79.653 E1.9993
G1 X90.98 Y80.5 E2.0391
G1 X90.67 Y81.329 E2.0789
G1 X90.317 Y82.14 E2.1186
G1 X89.923 Y82.932 E2.1583
G1 X89.487 Y83.702 E2.198
G1 X89.01 Y84.451 E2.2379
G1 X88.675 Y84.929 E2.2641
G1 X88.135 Y85.634 E2.304
G1 X87.56 Y86.306 E2.3437
G1 X86.95 Y86.95 E2.3836
G1 X86.529 Y87.356 E2.4098
G1 X85.865 Y87.945 E2.4497
G1 X85.172 Y88.495 E2.4894
G1 X84.452 Y89.009 E2.5291
G1 X83.706 Y89.485 E2.5688
G1 X82.936 Y89.921 E2.6086
G1 X82.144 Y90.315 E2.6483
G1 X81.33 Y90.669 E2.6881
G1 X80.785 Y90.879 E2.7144
G1 X79.944 Y91.16 E2.7542
G1 X79.091 Y91.397 E2.7939
G1 X78.227 Y91.589 E2.8337
G1 X77.355 Y91.735 E2.8734
G1 X76.473 Y91.835 E2.9132
G1 X75.89 Y91.876 E2.9395
G1 X75.003 Y91.9 E2.9793
G1 X74.116 Y91.877 E3.0192
G1 X73.532 Y91.836 E3.0454
G1 X72.651 Y91.736 E3.0853
G1 X71.778 Y91.59 E3.125
G1 X70.912 Y91.398 E3.1648
G1 X70.347 Y91.247 E3.1911
G1 X69.5 Y90.98 E3.231
G1 X68.671 Y90.67 E3.2707
G1 X67.86 Y90.317 E3.3104
G1 X67.068 Y89.923 E3.3502
G1 X66.298 Y89.487 E3.3899
G1 X65.549 Y89.01 E3.4297
G1 X65.07 Y88.675 E3.456
G1 X64.366 Y88.135 E3.4958
G1 X63.694 Y87.56 E3.5355
G1 X63.05 Y86.95 E3.5754
G1 X62.644 Y86.529 E3.6016
G1 X62.054 Y85.863 E3.6416
G1 X61.686 Y85.408 E3.6679
G1 X61.158 Y84.695 E3.7077
G1 X60.669 Y83.957 E3.7474
G1 X60.22 Y83.195 E3.7871
G1 X59.81 Y82.408 E3.827
G1 X59.563 Y81.878 E3.8532
G1 X59.222 Y81.056 E3.8932
G1 X59.022 Y80.507 E3.9195
G1 X58.755 Y79.66 E3.9593
G1 X58.534 Y78.804 E3.999
G1 X58.357 Y77.937 E4.0388
G1 X58.226 Y77.062 E4.0785
G1 X58.142 Y76.181 E4.1182
G1 X58.103 Y75.295 E4.1581
G1 X58.103 Y74.708 E4.1844
G1 X58.141 Y73.821 E4.2243
G1 X58.226 Y72.94 E4.264
G1 X58.357 Y72.065 E4.3037
G1 X58.533 Y71.198 E4.3434
G1 X58.755 Y70.342 E4.3832
G1 X59.022 Y69.495 E4.423
G1 X59.222 Y68.946 E4.4493
G1 X59.564 Y68.119 E4.4894
G1 X59.681 Y67.863 E4.5021
G1 X60.078 Y67.066 E4.5421
G1 X60.514 Y66.296 E4.5818
G1 X60.991 Y65.548 E4.6216
G1 X61.326 Y65.069 E4.6479
G1 X61.866 Y64.365 E4.6877
G1 X62.441 Y63.692 E4.7275
G1 X63.052 Y63.048 E4.7673
G1 X62.768 Y62.766 F4800
G92 E0
G1 X63.201 Y62.348 E0.027 F900
G1 X63.88 Y61.748 E0.0677
G1 X64.589 Y61.184 E0.1084
G1 X65.326 Y60.658 E0.1491
G1 X66.09 Y60.171 E0.1898
G1 X66.878 Y59.725 E0.2304
G1 X67.689 Y59.321 E0.2711
G1 X68.52 Y58.959 E0.3118
G1 X69.082 Y58.744 E0.3388
G1 X69.942 Y58.456 E0.3795
G1 X70.815 Y58.214 E0.4202
G1 X71.699 Y58.018 E0.4609
G1 X72.592 Y57.868 E0.5015
G1 X73.493 Y57.766 E0.5422
G1 X74.094 Y57.724 E0.5693
G1 X75 Y57.7 E0.61
G1 X75.906 Y57.724 E0.6507
G1 X76.507 Y57.766 E0.6777
G1 X77.408 Y57.868 E0.7184
G1 X78.301 Y58.018 E0.7591
G1 X79.186 Y58.214 E0.7998
G1 X79.768 Y58.37 E0.8268
G1 X80.632 Y58.643 E0.8676
G1 X81.481 Y58.96 E0.9082
G1 X82.311 Y59.321 E0.9489
G1 X83.122 Y59.725 E0.9896
G1 X83.91 Y60.171 E1.0302
G1 X84.675 Y60.658 E1.0709
G1 X85.168 Y61.003 E1.098
G1 X85.887 Y61.555 E1.1387
G1 X86.576 Y62.144 E1.1794
G1 X87.233 Y62.768 E1.22
G1 X87.652 Y63.201 E1.2471
