; G-Code generated by Simplify3D(TM) Version 2.2.0
; Dec 14, 2014 at 5:51:06 PM
; Settings Summary
;   processName,Printrbot Metial Simple
;   applyToModels,Pendant03
;   profileLabel,_PrintrBotMetal.fff
;   printMaterial,PLA
;   printQuality,Fast
;   extruderName,Primary Extruder
;   extruderToolheadNumber,0
;   extruderDiameter,0.4
;   extruderAutoWidth,0
;   extruderWidth,0.4
;   extrusionMultiplier,0.9
;   extruderUseRetract,1
;   extruderRetractionDistance,1
;   extruderExtraRestartDistance,0
;   extruderRetractionZLift,0
;   extruderRetractionSpeed,1800
;   extruderUseCoasting,0
;   extruderCoastingDistance,0.2
;   extruderUseWipe,0
;   extruderWipeDistance,5
;   primaryExtruder,0
;   layerHeight,0.3
;   topSolidLayers,1
;   bottomSolidLayers,1
;   perimeterOutlines,2
;   printPerimetersInsideOut,1
;   startPointOption,2
;   startPointOriginX,0
;   startPointOriginY,0
;   startPointOriginZ,300
;   sequentialIslands,0
;   spiralVaseMode,0
;   firstLayerHeightPercentage,90
;   firstLayerWidthPercentage,100
;   firstLayerUnderspeed,0.5
;   useRaft,0
;   raftExtruder,0
;   raftLayers,3
;   raftOffset,3
;   raftSeparationDistance,0.14
;   raftInfill,85
;   disableRaftBaseLayers,0
;   useSkirt,0
;   skirtExtruder,0
;   skirtLayers,1
;   skirtOutlines,2
;   skirtOffset,4
;   infillExtruder,0
;   externalInfillPattern,Rectilinear
;   infillPercentage,15
;   outlineOverlapPercentage,15
;   infillExtrusionWidthPercentage,100
;   minInfillLength,5
;   infillLayerInterval,1
;   randomInfillStartPoint,0
;   infillAngles,45,-45
;   generateSupport,0
;   supportExtruder,0
;   supportInfill,25
;   supportExtraInflation,0
;   denseSupportLayers,0
;   denseSupportInfill,70
;   supportLayerInterval,1
;   supportHorizontalPartOffset,0.3
;   supportUpperSeparationLayers,1
;   supportLowerSeparationLayers,1
;   supportGridSpacing,4
;   maxOverhangAngle,45
;   supportAngles,0
;   temperatureName,Primary Extruder,Heated Bed
;   temperatureNumber,0,1
;   temperatureSetpointCount,1,1
;   temperatureSetpointLayers,1,1
;   temperatureSetpointTemperatures,200,45
;   temperatureStabilizeAtStartup,1,1
;   temperatureHeatedBed,0,1
;   temperatureRelayBetweenLayers,0,0
;   temperatureRelayBetweenLoops,0,0
;   fanLayers,1,2
;   fanSpeeds,0,100
;   blipFanToFullPower,1
;   adjustSpeedForCooling,1
;   minSpeedLayerTime,15
;   minCoolingSpeedSlowdown,20
;   increaseFanForCooling,0
;   minFanLayerTime,45
;   maxCoolingFanSpeed,100
;   increaseFanForBridging,0
;   bridgingFanSpeed,100
;   use5D,1
;   relativeEdistances,0
;   allowEaxisZeroing,1
;   independentExtruderAxes,0
;   includeM10123,0
;   stickySupport,1
;   detectArcs,0
;   arcReplaceG2G3,0
;   arcRadialCompensation,1
;   gcodeXoffset,0
;   gcodeYoffset,0
;   gcodeZoffset,0
;   overrideMachineDefinition,1
;   machineTypeOverride,0
;   strokeXoverride,150
;   strokeYoverride,150
;   strokeZoverride,150
;   originOffsetXoverride,0
;   originOffsetYoverride,0
;   originOffsetZoverride,0
;   homeXdirOverride,-1
;   homeYdirOverride,-1
;   homeZdirOverride,-1
;   flipXoverride,1
;   flipYoverride,-1
;   flipZoverride,1
;   startingGcode,G28 ; home all axes,G29 ;,G1 E20.0 ; extrude 15mm,G92 E0.0 ; reset the Extruder distance to zero (no motion as a result of this command).
;   layerChangeGcode,
;   toolChangeGcode,
;   endingGcode,M104 S0 T0 ; turn off extruder,M140 S0 T1 ; turn off bed,G28 X0 ; home X axis,M84 ; disable motors,M107 ; Turn off fan
;   createX3G,0
;   celebration,0
;   celebrationSong,Random Song
;   createMB5G,0
;   postProcessing,
;   defaultSpeed,3600
;   outlineUnderspeed,0.5
;   solidInfillUnderspeed,0.8
;   supportUnderspeed,0.8
;   rapidXYspeed,4800
;   rapidZspeed,1000
;   minBridgingArea,50
;   bridgingExtrusionMultiplier,1
;   bridgingSpeedMultiplier,1
;   filamentDiameter,1.75
;   filamentPricePerKg,46
;   useMinPrintHeight,0
;   minPrintHeight,0
;   useMaxPrintHeight,0
;   maxPrintHeight,0
;   useDiaphragm,0
;   diaphragmLayerInterval,20
;   robustSlicing,1
;   mergeAllIntoSolid,0
;   onlyRetractWhenCrossingOutline,1
;   retractBetweenLayers,1
;   useRetractionMinTravel,0
;   retractionMinTravel,3
;   useRetractionOozeRate,0
;   retractionOozeRate,100
;   onlyWipeOutlines,1
;   toolChangeRetractionDistance,12
;   toolChangeExtraRestartDistance,-0.5
;   toolChangeRetractionSpeed,600
;   allowThinWallGapFill,1
;   thinWallAllowedOverlapPercentage,10
G90
M82
M106 S0
M140 S45
M190 S45
M104 S200 T0
M109 S200 T0
G28 ; home all axes
G29 ;
G1 E20.0 ; extrude 15mm
G92 E0.0 ; reset the Extruder distance to zero (no motion as a result of this command).
G92 E0
G1 E-1 F1800
; layer 1, Z = 0.27
T0
; tool H0.3 W0.4
G1 X65.936 Y66.247 F4800
G1 Z0.27 F1000
G1 E0 F540
G92 E0
G1 X65.49 Y66.734 E0.0296 F1350
G1 X65.073 Y67.241 E0.0591
G1 X64.805 Y67.596 E0.0791
G1 X64.433 Y68.137 E0.1086
G1 X64.088 Y68.7 E0.1382
G1 X63.774 Y69.277 E0.1677
G1 X63.579 Y69.677 E0.1877
G1 X63.317 Y70.28 E0.2172
G1 X63.087 Y70.895 E0.2467
G1 X62.95 Y71.318 E0.2667
G1 X62.774 Y71.952 E0.2962
G1 X62.631 Y72.596 E0.3258
G1 X62.522 Y73.247 E0.3555
G1 X62.448 Y73.902 E0.3851
G1 X62.408 Y74.558 E0.4146
G1 X62.4 Y75.021 E0.4354
G1 X62.418 Y75.678 E0.4649
G1 X62.471 Y76.336 E0.4945
G1 X62.558 Y76.989 E0.5241
G1 X62.679 Y77.635 E0.5536
G1 X62.779 Y78.069 E0.5736
G1 X62.956 Y78.702 E0.6031
G1 X63.166 Y79.327 E0.6327
G1 X63.408 Y79.938 E0.6622
G1 X63.587 Y80.339 E0.682
G1 X63.677 Y80.526 E0.6913
G1 X63.885 Y80.934 E0.7118
G1 X64.209 Y81.505 E0.7413
G1 X64.565 Y82.061 E0.771
G1 X64.947 Y82.595 E0.8005
G1 X65.221 Y82.946 E0.8204
G1 X65.649 Y83.445 E0.8499
G1 X66.104 Y83.923 E0.8796
G1 X66.583 Y84.376 E0.9092
G1 X67.085 Y84.804 E0.9388
G1 X67.609 Y85.204 E0.9684
G1 X68.153 Y85.577 E0.9981
G1 X68.714 Y85.92 E1.0275
G1 X69.103 Y86.135 E1.0475
G1 X69.692 Y86.427 E1.077
G1 X70.297 Y86.689 E1.1066
G1 X70.915 Y86.92 E1.1363
G1 X71.545 Y87.117 E1.1659
G1 X72.184 Y87.281 E1.1955
G1 X72.828 Y87.411 E1.225
G1 X73.265 Y87.48 E1.2449
G1 X73.704 Y87.533 E1.2647
G1 X74.359 Y87.584 E1.2942
G1 X75.019 Y87.6 E1.3239
G1 X75.678 Y87.582 E1.3535
G1 X76.336 Y87.529 E1.3831
G1 X76.989 Y87.442 E1.4127
G1 X77.638 Y87.321 E1.4423
G1 X78.279 Y87.166 E1.472
G1 X78.911 Y86.978 E1.5016
G1 X79.53 Y86.757 E1.5311
G1 X79.943 Y86.59 E1.5511
G1 X80.54 Y86.317 E1.5806
G1 X81.125 Y86.011 E1.6102
G1 X81.693 Y85.676 E1.6398
G1 X82.24 Y85.312 E1.6693
G1 X82.598 Y85.052 E1.6892
G1 X82.946 Y84.779 E1.709
G1 X83.445 Y84.351 E1.7385
G1 X83.923 Y83.896 E1.7682
G1 X84.376 Y83.417 E1.7978
G1 X84.804 Y82.915 E1.8274
G1 X85.205 Y82.391 E1.857
G1 X85.577 Y81.847 E1.8866
G1 X85.92 Y81.286 E1.9161
G1 X86.135 Y80.897 E1.9361
G1 X86.427 Y80.308 E1.9656
G1 X86.689 Y79.703 E1.9952
G1 X86.92 Y79.085 E2.0249
G1 X87.117 Y78.455 E2.0545
G1 X87.281 Y77.816 E2.0841
G1 X87.411 Y77.172 E2.1136
G1 X87.48 Y76.733 E2.1336
G1 X87.554 Y76.08 E2.1631
G1 X87.593 Y75.421 E2.1927
G1 X87.598 Y74.78 E2.2215
G1 X87.57 Y74.121 E2.2511
G1 X87.507 Y73.467 E2.2806
G1 X87.445 Y73.026 E2.3006
G1 X87.325 Y72.38 E2.3301
G1 X87.171 Y71.739 E2.3597
G1 X86.984 Y71.106 E2.3893
G1 X86.764 Y70.487 E2.4188
G1 X86.597 Y70.074 E2.4388
G1 X86.325 Y69.476 E2.4683
G1 X86.02 Y68.891 E2.498
G1 X85.687 Y68.325 E2.5275
G1 X85.445 Y67.952 E2.5474
G1 X85.063 Y67.417 E2.5769
G1 X84.652 Y66.901 E2.6066
G1 X84.215 Y66.407 E2.6362
G1 X83.753 Y65.936 E2.6658
G1 X83.266 Y65.49 E2.6954
G1 X82.759 Y65.073 E2.7249
G1 X82.404 Y64.805 E2.7449
G1 X81.863 Y64.433 E2.7744
G1 X81.3 Y64.088 E2.804
G1 X80.723 Y63.774 E2.8335
G1 X80.323 Y63.579 E2.8535
G1 X79.72 Y63.317 E2.883
G1 X79.105 Y63.087 E2.9125
G1 X78.681 Y62.95 E2.9325
G1 X78.048 Y62.774 E2.962
G1 X77.404 Y62.631 E2.9916
G1 X76.756 Y62.523 E3.0211
G1 X76.314 Y62.469 E3.0411
G1 X75.659 Y62.417 E3.0706
G1 X75 Y62.4 E3.1002
G1 X74.341 Y62.417 E3.1299
G1 X73.683 Y62.469 E3.1595
G1 X73.029 Y62.555 E3.1891
G1 X72.38 Y62.675 E3.2187
G1 X71.739 Y62.829 E3.2483
G1 X71.106 Y63.016 E3.2779
G1 X70.487 Y63.236 E3.3074
G1 X70.074 Y63.403 E3.3274
G1 X69.476 Y63.675 E3.3569
G1 X68.891 Y63.98 E3.3866
G1 X68.325 Y64.313 E3.4161
G1 X67.952 Y64.556 E3.436
G1 X67.417 Y64.937 E3.4655
G1 X66.901 Y65.348 E3.4952
G1 X66.407 Y65.785 E3.5248
G1 X65.936 Y66.247 E3.5544
G1 X66.224 Y66.525 F4800
G92 E0
G1 X65.792 Y66.996 E0.0287 F900
G1 X65.387 Y67.488 E0.0573
G1 X65.129 Y67.83 E0.0765
G1 X64.768 Y68.355 E0.1052
G1 X64.434 Y68.9 E0.1338
G1 X64.13 Y69.46 E0.1625
G1 X63.943 Y69.845 E0.1817
G1 X63.688 Y70.43 E0.2103
G1 X63.465 Y71.027 E0.239
G1 X63.333 Y71.434 E0.2582
G1 X63.162 Y72.049 E0.2868
G1 X63.024 Y72.672 E0.3155
G1 X62.919 Y73.302 E0.3442
G1 X62.846 Y73.937 E0.3728
G1 X62.807 Y74.573 E0.4015
G1 X62.8 Y75.019 E0.4215
G1 X62.818 Y75.656 E0.4501
G1 X62.869 Y76.293 E0.4788
G1 X62.953 Y76.926 E0.5075
G1 X63.07 Y77.553 E0.5361
G1 X63.167 Y77.97 E0.5553
G1 X63.338 Y78.584 E0.584
G1 X63.542 Y79.189 E0.6126
G1 X63.777 Y79.783 E0.6413
G1 X63.95 Y80.171 E0.6604
G1 X64.035 Y80.349 E0.6692
G1 X64.237 Y80.744 E0.6892
G1 X64.552 Y81.299 E0.7178
G1 X64.896 Y81.837 E0.7465
G1 X65.267 Y82.356 E0.7751
G1 X65.531 Y82.692 E0.7943
G1 X65.946 Y83.177 E0.823
G1 X66.386 Y83.639 E0.8516
G1 X66.85 Y84.078 E0.8803
G1 X67.336 Y84.492 E0.909
G1 X67.844 Y84.88 E0.9377
G1 X68.371 Y85.241 E0.9663
G1 X68.915 Y85.574 E0.995
G1 X69.289 Y85.781 E1.0142
G1 X69.86 Y86.064 E1.0428
G1 X70.446 Y86.318 E1.0715
G1 X71.045 Y86.541 E1.1002
G1 X71.655 Y86.732 E1.1289
G1 X72.273 Y86.891 E1.1575
G1 X72.898 Y87.018 E1.1862
G1 X73.32 Y87.084 E1.2053
G1 X73.743 Y87.135 E1.2245
G1 X74.379 Y87.184 E1.2531
G1 X75.018 Y87.2 E1.2818
G1 X75.656 Y87.182 E1.3105
G1 X76.293 Y87.131 E1.3392
G1 X76.926 Y87.047 E1.3679
G1 X77.554 Y86.93 E1.3965
G1 X78.175 Y86.78 E1.4252
G1 X78.787 Y86.597 E1.4539
G1 X79.388 Y86.383 E1.4825
G1 X79.784 Y86.223 E1.5017
G1 X80.364 Y85.957 E1.5304
G1 X80.93 Y85.662 E1.5591
G1 X81.48 Y85.337 E1.5877
G1 X82.012 Y84.984 E1.6164
G1 X82.356 Y84.732 E1.6355
G1 X82.692 Y84.469 E1.6547
G1 X83.177 Y84.054 E1.6833
G1 X83.639 Y83.614 E1.712
G1 X84.078 Y83.15 E1.7407
G1 X84.492 Y82.664 E1.7694
G1 X84.88 Y82.156 E1.798
G1 X85.241 Y81.629 E1.8267
G1 X85.574 Y81.085 E1.8554
G1 X85.781 Y80.711 E1.8746
G1 X86.064 Y80.14 E1.9032
G1 X86.318 Y79.553 E1.9319
G1 X86.541 Y78.955 E1.9606
G1 X86.732 Y78.345 E1.9892
G1 X86.891 Y77.727 E2.0179
G1 X87.018 Y77.102 E2.0466
G1 X87.084 Y76.679 E2.0658
G1 X87.155 Y76.045 E2.0944
G1 X87.193 Y75.408 E2.1231
G1 X87.198 Y74.787 E2.151
G1 X87.17 Y74.149 E2.1796
G1 X87.109 Y73.514 E2.2083
G1 X87.05 Y73.091 E2.2275
G1 X86.933 Y72.463 E2.2561
G1 X86.784 Y71.842 E2.2848
G1 X86.603 Y71.23 E2.3135
G1 X86.39 Y70.629 E2.3421
G1 X86.23 Y70.232 E2.3613
G1 X85.965 Y69.652 E2.3899
G1 X85.67 Y69.085 E2.4186
G1 X85.347 Y68.536 E2.4473
G1 X85.114 Y68.177 E2.4665
G1 X84.743 Y67.658 E2.4951
G1 X84.346 Y67.158 E2.5238
G1 X83.923 Y66.68 E2.5525
G1 X83.475 Y66.224 E2.5811
G1 X83.004 Y65.792 E2.6098
G1 X82.512 Y65.387 E2.6385
G1 X82.17 Y65.129 E2.6577
G1 X81.645 Y64.768 E2.6863
G1 X81.1 Y64.434 E2.715
G1 X80.539 Y64.13 E2.7436
G1 X80.155 Y63.943 E2.7628
G1 X79.57 Y63.688 E2.7915
G1 X78.973 Y63.465 E2.8201
G1 X78.566 Y63.333 E2.8393
G1 X77.951 Y63.162 E2.8679
G1 X77.328 Y63.024 E2.8966
G1 X76.699 Y62.919 E2.9253
G1 X76.274 Y62.867 E2.9445
G1 X75.638 Y62.817 E2.9731
G1 X75 Y62.8 E3.0018
G1 X74.362 Y62.817 E3.0305
G1 X73.725 Y62.867 E3.0591
G1 X73.091 Y62.95 E3.0878
G1 X72.463 Y63.066 E3.1165
G1 X71.842 Y63.216 E3.1452
G1 X71.23 Y63.397 E3.1739
G1 X70.629 Y63.61 E3.2025
G1 X70.232 Y63.77 E3.2217
G1 X69.652 Y64.035 E3.2503
G1 X69.085 Y64.33 E3.279
G1 X68.536 Y64.653 E3.3077
G1 X68.177 Y64.886 E3.3269
G1 X67.658 Y65.257 E3.3555
G1 X67.158 Y65.654 E3.3842
G1 X66.68 Y66.077 E3.4129
G1 X66.224 Y66.525 E3.4415
G1 X63.609 Y63.202 F4800
G92 E0
G1 X64.244 Y62.62 E0.0387 F1350
G1 X64.679 Y62.255 E0.0641
G1 X65.362 Y61.731 E0.1028
G1 X66.07 Y61.245 E0.1414
G1 X66.802 Y60.796 E0.1799
G1 X67.557 Y60.387 E0.2185
G1 X68.334 Y60.016 E0.2571
G1 X68.859 Y59.793 E0.2827
G1 X69.39 Y59.589 E0.3083
G1 X70.207 Y59.316 E0.347
G1 X71.035 Y59.087 E0.3855
G1 X71.873 Y58.901 E0.4241
G1 X72.722 Y58.759 E0.4627
G1 X73.285 Y58.69 E0.4882
G1 X74.144 Y58.623 E0.5269
G1 X75.002 Y58.6 E0.5654
G1 X75.86 Y58.623 E0.604
G1 X76.719 Y58.69 E0.6427
G1 X77.282 Y58.76 E0.6681
G1 X78.131 Y58.902 E0.7068
G1 X78.969 Y59.088 E0.7453
G1 X79.797 Y59.317 E0.7839
G1 X80.611 Y59.59 E0.8224
G1 X81.41 Y59.905 E0.861
G1 X82.193 Y60.262 E0.8997
G1 X82.699 Y60.52 E0.9251
G1 X83.448 Y60.944 E0.9638
G1 X84.172 Y61.405 E1.0024
G1 X84.871 Y61.904 E1.0409
G1 X85.543 Y62.438 E1.0795
G1 X86.186 Y63.007 E1.118
G1 X86.798 Y63.609 E1.1566
G1 X87.378 Y64.242 E1.1951
G1 X87.925 Y64.905 E1.2337
G1 X88.437 Y65.597 E1.2723
G1 X88.754 Y66.067 E1.2978
G1 X89.204 Y66.802 E1.3365
G1 X89.613 Y67.557 E1.375
G1 X89.984 Y68.334 E1.4137
G1 X90.207 Y68.859 E1.4393
G1 X90.411 Y69.39 E1.4649
G1 X90.684 Y70.207 E1.5035
G1 X90.913 Y71.035 E1.5421
G1 X91.099 Y71.873 E1.5806
G1 X91.241 Y72.722 E1.6193
G1 X91.31 Y73.285 E1.6448
G1 X91.377 Y74.144 E1.6835
G1 X91.4 Y75 E1.7219
G1 X91.377 Y75.858 E1.7605
G1 X91.31 Y76.717 E1.7991
G1 X91.241 Y77.28 E1.8246
G1 X91.098 Y78.129 E1.8633
G1 X90.913 Y78.967 E1.9018
G1 X90.683 Y79.795 E1.9404
G1 X90.411 Y80.609 E1.9789
G1 X90.096 Y81.408 E2.0175
G1 X89.739 Y82.191 E2.0561
G1 X89.481 Y82.697 E2.0816
G1 X89.057 Y83.446 E2.1203
G1 X88.596 Y84.171 E2.1588
G1 X88.097 Y84.87 E2.1974
G1 X87.563 Y85.542 E2.2359
G1 X86.994 Y86.185 E2.2745
G1 X86.392 Y86.797 E2.313
G1 X85.759 Y87.377 E2.3516
G1 X85.097 Y87.923 E2.3901
G1 X84.404 Y88.435 E2.4288
G1 X83.934 Y88.753 E2.4543
G1 X83.2 Y89.203 E2.493
G1 X82.445 Y89.612 E2.5315
G1 X81.668 Y89.983 E2.5702
G1 X81.144 Y90.206 E2.5958
G1 X80.612 Y90.41 E2.6213
G1 X79.795 Y90.683 E2.66
G1 X78.967 Y90.913 E2.6986
G1 X78.129 Y91.098 E2.7371
G1 X77.28 Y91.241 E2.7758
G1 X76.717 Y91.31 E2.8013
G1 X75.858 Y91.377 E2.8399
G1 X75 Y91.4 E2.8785
G1 X74.142 Y91.377 E2.917
G1 X73.283 Y91.31 E2.9557
G1 X72.72 Y91.241 E2.9812
G1 X71.871 Y91.099 E3.0198
G1 X71.032 Y90.913 E3.0584
G1 X70.205 Y90.683 E3.0969
G1 X69.391 Y90.411 E3.1355
G1 X68.592 Y90.096 E3.174
G1 X67.808 Y89.739 E3.2127
G1 X67.303 Y89.481 E3.2382
G1 X66.554 Y89.057 E3.2768
G1 X65.825 Y88.593 E3.3157
G1 X65.597 Y88.437 E3.328
G1 X65.132 Y88.099 E3.3538
G1 X64.458 Y87.563 E3.3925
G1 X63.815 Y86.994 E3.4311
G1 X63.203 Y86.392 E3.4696
G1 X62.623 Y85.759 E3.5082
G1 X62.077 Y85.097 E3.5467
G1 X61.565 Y84.404 E3.5854
G1 X61.247 Y83.934 E3.6108
G1 X60.797 Y83.2 E3.6495
G1 X60.388 Y82.445 E3.6881
G1 X60.018 Y81.67 E3.7266
G1 X59.689 Y80.877 E3.7652
G1 X59.403 Y80.068 E3.8037
G1 X59.158 Y79.242 E3.8424
G1 X59.021 Y78.692 E3.8679
G1 X58.849 Y77.848 E3.9065
G1 X58.722 Y76.999 E3.9451
G1 X58.64 Y76.144 E3.9836
G1 X58.603 Y75.284 E4.0223
G1 X58.603 Y74.714 E4.0479
G1 X58.64 Y73.851 E4.0867
G1 X58.69 Y73.286 E4.1121
G1 X58.802 Y72.432 E4.1508
G1 X58.959 Y71.588 E4.1893
G1 X59.16 Y70.753 E4.2279
G1 X59.403 Y69.93 E4.2664
G1 X59.69 Y69.121 E4.305
G1 X60.019 Y68.328 E4.3435
G1 X60.389 Y67.553 E4.3821
G1 X60.798 Y66.798 E4.4207
G1 X61.249 Y66.064 E4.4593
G1 X61.567 Y65.592 E4.4849
G1 X61.902 Y65.131 E4.5105
G1 X62.438 Y64.457 E4.5492
G1 X63.007 Y63.814 E4.5877
G1 X63.609 Y63.202 E4.6263
G1 X63.331 Y62.914 F4800
G92 E0
G1 X63.98 Y62.319 E0.0395 F900
G1 X64.428 Y61.943 E0.0658
G1 X65.127 Y61.407 E0.1053
G1 X65.852 Y60.909 E0.1448
G1 X66.602 Y60.45 E0.1843
G1 X67.375 Y60.03 E0.2238
G1 X68.169 Y59.651 E0.2633
G1 X68.709 Y59.423 E0.2896
G1 X69.255 Y59.213 E0.3159
G1 X70.09 Y58.934 E0.3554
G1 X70.938 Y58.699 E0.3949
G1 X71.796 Y58.508 E0.4344
G1 X72.665 Y58.363 E0.474
G1 X73.245 Y58.292 E0.5002
G1 X74.123 Y58.223 E0.5397
G1 X75.002 Y58.2 E0.5792
G1 X75.881 Y58.223 E0.6187
G1 X76.759 Y58.292 E0.6582
G1 X77.339 Y58.364 E0.6845
G1 X78.208 Y58.509 E0.724
G1 X79.066 Y58.7 E0.7635
G1 X79.914 Y58.935 E0.803
G1 X80.748 Y59.214 E0.8425
G1 X81.566 Y59.536 E0.882
G1 X82.367 Y59.902 E0.9215
G1 X82.888 Y60.167 E0.9478
G1 X83.654 Y60.601 E0.9873
G1 X84.396 Y61.073 E1.0268
G1 X85.112 Y61.584 E1.0663
G1 X85.8 Y62.132 E1.1058
G1 X86.459 Y62.715 E1.1453
G1 X87.086 Y63.331 E1.1848
G1 X87.68 Y63.98 E1.2243
G1 X88.24 Y64.659 E1.2638
